!!!!SEGMENT: pl-stab--11a--003_rodowski-aleksander--litania-de-b-m-v-rosa-mistica.krn
!!!cenid: 18xx:3400
!!!COM: Rodowski, Aleksander
!!!COM-rismID: pe30009627
!!!CDT: <1790->1810
!!!CNT: Polish
!!!OPR: Litania de B.M.V
!!!OTL: Rosa mistica
!!!OMV: 003
!!!PDT: 1801
!!!AGN:
!!!SMS-siglum: PL-STAb
!!!SMS-shelfmark: 11a
!!!SMS-shelfwork: M
!!!SMS-variant:
!!!SMS-altvar:
!!!NIFC-rismSourceID: 301050677
!!!NIFC-islandoraID: pl-stab:2413
!!!URL-pdf-islandora: https://repozytorium.nifc.pl/islandora/object/pl-stab%3A2413/datastream/PDF/view
!!!URL-scan: https://polish.musicsources.pl/pl/lokalizacje/galeria/rekopisy/4403 @EN{Scan on Polish Music Sources Website} @PL{Skany w portalu Dziedzictwo Muzyki Polskiej w otwartym dostępie}
!!!ONB-nifc: UWAGA: części Litanii: 1. Introdukcia, 2. Kyrie, 3. Rosa mistica, 4. Regina angelorum, 5. Agnus Dei, 6. Christe audi nos
!!!OMD: Adagio
!!!AIN: 1 alto 3 empty 1 organ 1 tenor 2 violn 1 vox
!!!key: G
**kern	**fba	**dynam	**kern	**dynam	**kern	**dynam	**kern	**text	**kern	**text	**kern	**kern	**kern	**kern
*part9	*part9	*part9	*part8	*part8	*part7	*part7	*part6	*part6	*part5	*part5	*part4	*part3	*part2	*part1
*staff9	*	*	*staff8	*	*staff7	*	*staff6	*staff6	*staff5	*staff5	*staff4	*staff3	*staff2	*staff1
*Iorgan	*	*	*Ivioln	*	*Ivioln	*	*Iempty	*	*Itenor	*	*Ialto	*Ivox	*Iempty	*Iempty
*I"Organo	*	*	*I"Violino 2do	*	*I"Violino Primo	*	*I"Baſso	*	*I"Tenore	*	*I"Alto	*I"Canto	*I"Cornu Secundo	*I"Cornu Primo
*I'Org.	*	*	*I'Vn II	*	*I'Vn I	*	*I'B.	*	*I'T.	*	*I'A.	*I'C.	*I'C. in F	*I'C. in F
*ICklav	*	*	*ICstr	*	*ICstr	*	*ICvox	*	*ICvox	*	*ICvox	*ICvox	*ICbras	*ICbras
*IGacmp	*	*	*IGacmp	*	*IGacmp	*	*IGcoro	*	*IGcoro	*	*IGcoro	*IGcoro	*IGacmp	*IGacmp
*clefF4	*	*	*clefG2	*	*clefG2	*	*clefF4	*	*clefC4	*	*clefC3	*clefC1	*clefG2	*clefG2
*	*	*	*	*	*	*	*	*	*	*	*	*	*ITrd4c7	*ITrd4c7
*k[f#]	*	*	*k[f#]	*	*k[f#]	*	*k[f#]	*	*k[f#]	*	*k[f#]	*k[f#]	*k[f#]	*k[f#]
*G:	*	*	*G:	*	*G:	*	*G:	*	*G:	*	*G:	*G:	*G:	*G:
*M3/4	*	*	*M3/4	*	*M3/4	*	*M3/4	*	*M3/4	*	*M3/4	*M3/4	*M3/4	*M3/4
*	*	*	*	*	*	*below	*	*	*	*	*	*	*	*
=1	=1	=1	=1	=1	=1	=1	=1	=1	=1	=1	=1	=1	=1	=1
!	!	!	!	!	!LO:TX:b:t=Dulce	!	!	!	!LO:TX:a:t=Adagio	!	!	!	!	!
!	!	!	!LO:TX:a:t=Adagio	!	!LO:TX:a:t=Adagio solo	!	!LO:TX:a:t=adagio	!	!LO:TX:a:t=15	!	!LO:TX:a:t=Tacet	!LO:TX:a:t=Tacet	!LO:TX:a:t=Tacet	!LO:TX:a:t=Tacet
8G\	.	p	16G/LL	p	4dd\	.	0.r	.	0.r	.	2.ryy	2.ryy	2.ryy	2.ryy
.	.	.	16B/	.	.	.	.	.	.	.	.	.	.	.
8r	.	.	16d/	.	.	.	.	.	.	.	.	.	.	.
.	.	.	16B/JJ	.	.	.	.	.	.	.	.	.	.	.
*	*	*	*rep	*	*	*	*	*	*	*	*	*	*	*
!	!	!	!	!	!	!LO:DY:t=p&colon;	!	!	!	!	!	!	!	!
8G\	.	.	16G/LL	.	32cc#X\LLL	p	.	.	.	.	.	.	.	.
.	.	.	.	.	32dd\	.	.	.	.	.	.	.	.	.
.	.	.	16B/	.	32ee\	.	.	.	.	.	.	.	.	.
.	.	.	.	.	32dd\JJJ	.	.	.	.	.	.	.	.	.
8r	.	.	16d/	.	32ccn/LLL	.	.	.	.	.	.	.	.	.
.	.	.	.	.	32b/	.	.	.	.	.	.	.	.	.
.	.	.	16B/JJ	.	32a/	.	.	.	.	.	.	.	.	.
.	.	.	.	.	32g/JJJ	.	.	.	.	.	.	.	.	.
*	*	*	*Xrep	*	*	*	*	*	*	*	*	*	*	*
8G\	.	.	(16A/LL	.	16f#/LL	.	.	.	.	.	.	.	.	.
.	.	.	16B/)	.	16g/	.	.	.	.	.	.	.	.	.
8r	.	.	(16A/	.	16f#/	.	.	.	.	.	.	.	.	.
.	.	.	16B/JJ)	.	16g/JJ	.	.	.	.	.	.	.	.	.
=2	=2	=2	=2	=2	=2	=2	=2	=2	=2	=2	=2	=2	=2	=2
8G\	.	.	16G/LL	.	32e/LLL	.	.	.	.	.	2.ryy	2.ryy	2.ryy	2.ryy
.	.	.	.	.	32g/	.	.	.	.	.	.	.	.	.
.	.	.	16c/	.	32cc/	.	.	.	.	.	.	.	.	.
.	.	.	.	.	32ee/JJJ	.	.	.	.	.	.	.	.	.
.	.	.	.	.	16qqaa/	.	.	.	.	.	.	.	.	.
8r	.	.	16e/	.	32gg\LLL	.	.	.	.	.	.	.	.	.
.	.	.	.	.	32ff#\	.	.	.	.	.	.	.	.	.
.	.	.	16c/JJ	.	32gg\	.	.	.	.	.	.	.	.	.
.	.	.	.	.	32ff#\JJJ	.	.	.	.	.	.	.	.	.
8G\	.	.	16G/LL	.	8dd\	.	.	.	.	.	.	.	.	.
.	.	.	16B/	.	.	.	.	.	.	.	.	.	.	.
8r	.	.	16d/	.	8r	.	.	.	.	.	.	.	.	.
.	.	.	16B/JJ	.	.	.	.	.	.	.	.	.	.	.
*	*	*	*rep	*	*	*	*	*	*	*	*	*	*	*
8G\	.	.	16G/LL	.	32dd\LLL	.	.	.	.	.	.	.	.	.
.	.	.	.	.	32ee\	.	.	.	.	.	.	.	.	.
.	.	.	16B/	.	32ff#\	.	.	.	.	.	.	.	.	.
.	.	.	.	.	32gg\	.	.	.	.	.	.	.	.	.
8r	.	.	16d/	.	32aa\	.	.	.	.	.	.	.	.	.
.	.	.	.	.	32bb\	.	.	.	.	.	.	.	.	.
.	.	.	16B/JJ	.	32ccc\	.	.	.	.	.	.	.	.	.
.	.	.	.	.	32ddd\JJJ	.	.	.	.	.	.	.	.	.
*	*	*	*Xrep	*	*	*	*	*	*	*	*	*	*	*
=3	=3	=3	=3	=3	=3	=3	=3	=3	=3	=3	=3	=3	=3	=3
8D\	.	.	16A/LL	.	8.ccc\L	.	.	.	.	.	2.ryy	2.ryy	2.ryy	2.ryy
.	.	.	16c/	.	.	.	.	.	.	.	.	.	.	.
8r	.	.	16d/	.	.	.	.	.	.	.	.	.	.	.
.	.	.	16c/JJ	.	16bb\Jk	.	.	.	.	.	.	.	.	.
*	*	*	*rep	*	*	*	*	*	*	*	*	*	*	*
8F#\	.	.	16A/LL	.	32aa\LLL	.	.	.	.	.	.	.	.	.
.	.	.	.	.	32bb\	.	.	.	.	.	.	.	.	.
.	.	.	16c/	.	32aa\	.	.	.	.	.	.	.	.	.
.	.	.	.	.	32gg\JJJ	.	.	.	.	.	.	.	.	.
!	!	!	!	!	!LO:LB:g=original	!	!	!	!	!	!	!	!	!
8r	.	.	16d/	.	32ff#\LLL	.	.	.	.	.	.	.	.	.
.	.	.	.	.	32gg\	.	.	.	.	.	.	.	.	.
.	.	.	16c/JJ	.	32ff#\	.	.	.	.	.	.	.	.	.
.	.	.	.	.	32ee\JJJ	.	.	.	.	.	.	.	.	.
*	*	*	*Xrep	*	*	*	*	*	*	*	*	*	*	*
8D\	.	.	16A/LL	.	16dd\LL	.	.	.	.	.	.	.	.	.
.	.	.	16c/	.	16cc\	.	.	.	.	.	.	.	.	.
8r	.	.	16d/	.	16b\	.	.	.	.	.	.	.	.	.
.	.	.	16f#/JJ	.	16cc\JJ	.	.	.	.	.	.	.	.	.
=4	=4	=4	=4	=4	=4	=4	=4	=4	=4	=4	=4	=4	=4	=4
8G\	.	.	16a/LL	.	16cc\LL	.	.	.	.	.	2.ryy	2.ryy	2.ryy	2.ryy
.	.	.	16g/	.	16b\	.	.	.	.	.	.	.	.	.
8r	.	.	16cc/	.	16ee\	.	.	.	.	.	.	.	.	.
.	.	.	16b/JJ	.	16dd\JJ	.	.	.	.	.	.	.	.	.
8GG/	.	.	16b/LL	.	8dd\	.	.	.	.	.	.	.	.	.
.	.	.	16g/	.	.	.	.	.	.	.	.	.	.	.
8r	.	.	16d/	.	8r	.	.	.	.	.	.	.	.	.
.	.	.	16B/JJ	.	.	.	.	.	.	.	.	.	.	.
8G\	.	.	8G/	.	32dd\LLL	.	.	.	.	.	.	.	.	.
.	.	.	.	.	32ee\	.	.	.	.	.	.	.	.	.
.	.	.	.	.	32ff#\	.	.	.	.	.	.	.	.	.
.	.	.	.	.	32gg\JJJ	.	.	.	.	.	.	.	.	.
8r	.	.	8r	.	32aa\LLL	.	.	.	.	.	.	.	.	.
.	.	.	.	.	32bb\	.	.	.	.	.	.	.	.	.
.	.	.	.	.	32ccc\	.	.	.	.	.	.	.	.	.
.	.	.	.	.	32ddd\JJJ	.	.	.	.	.	.	.	.	.
!	!	!	!LO:LB:g=original	!	!	!	!	!	!	!	!	!	!	!
=5	=5	=5	=5	=5	=5	=5	=5	=5	=5	=5	=5	=5	=5	=5
*	*	*	*	*	*Xtuplet	*	*	*	*	*	*	*	*	*
8D\	.	.	16A/LL	.	24ccc\LL	.	0.r	.	0.r	.	2.ryy	2.ryy	2.ryy	2.ryy
.	.	.	.	.	24ddd\	.	.	.	.	.	.	.	.	.
.	.	.	16c/	.	.	.	.	.	.	.	.	.	.	.
.	.	.	.	.	24bb\JJ	.	.	.	.	.	.	.	.	.
8r	.	.	16d/	.	24aa\LL	.	.	.	.	.	.	.	.	.
.	.	.	.	.	24bb\	.	.	.	.	.	.	.	.	.
.	.	.	16c/JJ	.	.	.	.	.	.	.	.	.	.	.
.	.	.	.	.	24gg\JJ	.	.	.	.	.	.	.	.	.
*	*	*	*rep	*	*	*	*	*	*	*	*	*	*	*
8F#\	.	.	16A/LL	.	24ff#\LL	.	.	.	.	.	.	.	.	.
.	.	.	.	.	24gg\	.	.	.	.	.	.	.	.	.
.	.	.	16c/	.	.	.	.	.	.	.	.	.	.	.
.	.	.	.	.	24ee\JJ	.	.	.	.	.	.	.	.	.
8r	.	.	16d/	.	24dd\LL	.	.	.	.	.	.	.	.	.
.	.	.	.	.	24ee\	.	.	.	.	.	.	.	.	.
.	.	.	16c/JJ	.	.	.	.	.	.	.	.	.	.	.
.	.	.	.	.	24cc\JJ	.	.	.	.	.	.	.	.	.
*	*	*	*Xrep	*	*	*	*	*	*	*	*	*	*	*
8G\L	.	.	16G/LL	.	16b\LL	.	.	.	.	.	.	.	.	.
.	.	.	16B/	.	16dd\	.	.	.	.	.	.	.	.	.
8C#X\J	.	.	16B/	.	16gg\	.	.	.	.	.	.	.	.	.
.	.	.	16g/JJ	.	16b\JJ	.	.	.	.	.	.	.	.	.
=6	=6	=6	=6	=6	=6	=6	=6	=6	=6	=6	=6	=6	=6	=6
8D/	.	.	16g/LL	.	16b\LL	.	.	.	.	.	2.ryy	2.ryy	2.ryy	2.ryy
.	.	.	16g/	.	16b\	.	.	.	.	.	.	.	.	.
8r	.	.	16.b/	.	16.dd\	.	.	.	.	.	.	.	.	.
.	.	.	32g/JJk	.	32b\JJk	.	.	.	.	.	.	.	.	.
16r	.	.	4f#/	.	4a\	.	.	.	.	.	.	.	.	.
16D/LL	.	.	.	.	.	.	.	.	.	.	.	.	.	.
16AA/	.	.	.	.	.	.	.	.	.	.	.	.	.	.
16FF#/JJ	.	.	.	.	.	.	.	.	.	.	.	.	.	.
8DD/	.	.	4r	.	4r	.	.	.	.	.	.	.	.	.
8r	.	.	.	.	.	.	.	.	.	.	.	.	.	.
!LO:LB:g=original	!	!	!	!	!LO:LB:g=original	!	!	!	!	!	!	!	!	!
=7	=7	=7	=7!|:	=7	=7	=7	=7	=7	=7	=7	=7	=7	=7	=7
8F#\	3_	.	16A/LL	.	16r	.	.	.	.	.	2.ryy	2.ryy	2.ryy	2.ryy
.	.	.	16c/	.	16dd\LL	.	.	.	.	.	.	.	.	.
8r	.	.	16f#/	.	16ee\	.	.	.	.	.	.	.	.	.
.	.	.	16a/JJ	.	16dd\JJ	.	.	.	.	.	.	.	.	.
8G\	.	.	16B/LL	.	16r	.	.	.	.	.	.	.	.	.
.	.	.	16d/	.	16dd\LL	.	.	.	.	.	.	.	.	.
8r	.	.	16g/	.	16ee\	.	.	.	.	.	.	.	.	.
.	.	.	16b/JJ	.	16dd\JJ	.	.	.	.	.	.	.	.	.
8A\	.	.	16d/LL	.	16ff#\LL	.	.	.	.	.	.	.	.	.
.	.	.	16f#/	.	16aa\	.	.	.	.	.	.	.	.	.
8r	.	.	16a/	.	16ccc\	.	.	.	.	.	.	.	.	.
.	x	.	16cc/JJ	.	16eee\JJ	.	.	.	.	.	.	.	.	.
=8	=8	=8	=8	=8	=8	=8	=8	=8	=8	=8	=8	=8	=8	=8
8B\	.	.	16d/LL	.	16eee\LL	.	.	.	.	.	2.ryy	2.ryy	2.ryy	2.ryy
.	.	.	16b/	.	16ddd\JJ	.	.	.	.	.	.	.	.	.
8r	.	.	16g/	.	4ddd\	.	.	.	.	.	.	.	.	.
.	.	.	16b/JJ	.	.	.	.	.	.	.	.	.	.	.
8r	.	.	16d/LL	.	.	.	.	.	.	.	.	.	.	.
.	.	.	16b/	.	.	.	.	.	.	.	.	.	.	.
!LO:TX:a:t=P:mixedbeam:problem	!	!	!	!	!	!	!	!	!	!	!	!	!	!
8G\L	.	.	16g/	.	16bb\LL	.	.	.	.	.	.	.	.	.
.	.	.	16b/JJ	.	16ddd\JJ	.	.	.	.	.	.	.	.	.
8D\	.	.	16d/LL	.	16ccc\LL	.	.	.	.	.	.	.	.	.
.	.	.	16f#/	.	16bb\	.	.	.	.	.	.	.	.	.
8DD/J	.	.	16a/	.	16ccc\	.	.	.	.	.	.	.	.	.
.	.	.	16f#/JJ	.	16aa\JJ	.	.	.	.	.	.	.	.	.
=9	=9	=9	=9:|!	=9	=9	=9	=9	=9	=9	=9	=9	=9	=9	=9
8F#\	3_	.	16A/LLyy	.	16r	.	0.r	.	0.r	.	2.ryy	2.ryy	2.ryy	2.ryy
.	.	.	16c/yy	.	16dd\LL	.	.	.	.	.	.	.	.	.
8r	.	.	16f#/yy	.	16ee\	.	.	.	.	.	.	.	.	.
.	.	.	16a/JJyy	.	16dd\JJ	.	.	.	.	.	.	.	.	.
8G\	.	.	16B/LLyy	.	16r	.	.	.	.	.	.	.	.	.
.	.	.	16d/yy	.	16dd\LL	.	.	.	.	.	.	.	.	.
8r	.	.	16g/yy	.	16ee\	.	.	.	.	.	.	.	.	.
.	.	.	16b/JJyy	.	16dd\JJ	.	.	.	.	.	.	.	.	.
8A\	.	.	16d/LLyy	.	16ff#\LL	.	.	.	.	.	.	.	.	.
.	.	.	16f#/yy	.	16aa\	.	.	.	.	.	.	.	.	.
8r	.	.	16a/yy	.	16ccc\	.	.	.	.	.	.	.	.	.
.	x	.	16cc/JJyy	.	16eee\JJ	.	.	.	.	.	.	.	.	.
=10	=10	=10	=10	=10	=10	=10	=10	=10	=10	=10	=10	=10	=10	=10
8B\	.	.	16d/LLyy	.	16eee\LL	.	.	.	.	.	2.ryy	2.ryy	2.ryy	2.ryy
.	.	.	16b/yy	.	16ddd\JJ	.	.	.	.	.	.	.	.	.
8r	.	.	16g/yy	.	4ddd\	.	.	.	.	.	.	.	.	.
.	.	.	16b/JJyy	.	.	.	.	.	.	.	.	.	.	.
8r	.	.	16d/LLyy	.	.	.	.	.	.	.	.	.	.	.
.	.	.	16b/yy	.	.	.	.	.	.	.	.	.	.	.
!LO:TX:a:t=P:problem=mixedbeam	!	!	!	!	!	!	!	!	!	!	!	!	!	!
8G\L	.	.	16g/yy	.	16bb\LL	.	.	.	.	.	.	.	.	.
.	.	.	16b/JJyy	.	16ddd\JJ	.	.	.	.	.	.	.	.	.
!	!	!	!	!	!LO:LB:g=original	!	!	!	!	!	!	!	!	!
8D\	.	.	16d/LLyy	.	16ccc\LL	.	.	.	.	.	.	.	.	.
.	.	.	16f#/yy	.	16bb\	.	.	.	.	.	.	.	.	.
8DD/J	.	.	16a/yy	.	16ccc\	.	.	.	.	.	.	.	.	.
.	.	.	16f#/JJyy	.	16aa\JJ	.	.	.	.	.	.	.	.	.
=11	=11	=11	=11	=11	=11	=11	=11	=11	=11	=11	=11	=11	=11	=11
16.G\LL	.	f	16.g/LL	.	16.gg\LL	f	.	.	.	.	2.ryy	2.ryy	2.ryy	2.ryy
32G\K	.	.	32g/K	.	32gg\K	.	.	.	.	.	.	.	.	.
16.B\	.	.	16.b/	.	16.bb\	.	.	.	.	.	.	.	.	.
32D#X\JJk	.	.	32d#X/JJk	.	32dd#X\JJk	.	.	.	.	.	.	.	.	.
16.E\LL	.	.	16.e/LL	.	16.ee\LL	.	.	.	.	.	.	.	.	.
32E\K	.	.	32e/K	.	32ee\K	.	.	.	.	.	.	.	.	.
16.G\	.	.	16.g/	.	16.gg\	.	.	.	.	.	.	.	.	.
32BB\JJk	.	.	32B/JJk	.	32b\JJk	.	.	.	.	.	.	.	.	.
!	!	!	!LO:LB:g=original	!	!	!	!	!	!	!	!	!	!	!
16.C\LL	.	.	16.c/LL	.	16.cc\LL	.	.	.	.	.	.	.	.	.
32C\K	.	.	32c/K	.	32cc\K	.	.	.	.	.	.	.	.	.
16.E\	.	.	16.e/	.	16.ee\	.	.	.	.	.	.	.	.	.
32C#X\JJk	.	.	32c/JJk	.	32cc#X\JJk	.	.	.	.	.	.	.	.	.
!LO:LB:g=original	!	!	!	!	!	!	!	!	!	!	!	!	!	!
=12	=12	=12	=12	=12	=12	=12	=12	=12	=12	=12	=12	=12	=12	=12
*	*	*LO:DY:t=p: global	*	*	*	*	*	*	*	*	*	*	*	*
!	!	!LO:DY:t=p&colon;	!	!LO:DY:rj	!	!	!	!	!	!	!	!	!	!
8D\	.	p	16d/LL	p	16dd\LL	p	.	.	.	.	2.ryy	2.ryy	2.ryy	2.ryy
.	.	.	16b/	.	16gg\	.	.	.	.	.	.	.	.	.
8r	.	.	16gg/	.	16bb\	.	.	.	.	.	.	.	.	.
.	.	.	16bb/JJ	.	16ddd\JJ	.	.	.	.	.	.	.	.	.
8D\	.	.	4bb\	.	4ddd\	.	.	.	.	.	.	.	.	.
8r	.	.	.	.	.	.	.	.	.	.	.	.	.	.
8D\	.	.	16bb\LL	.	16ddd\LL	.	.	.	.	.	.	.	.	.
.	.	.	16aa\	.	16ccc\	.	.	.	.	.	.	.	.	.
8r	.	.	16gg\	.	16bb\	.	.	.	.	.	.	.	.	.
.	.	.	16aa\JJ	.	16ccc\JJ	.	.	.	.	.	.	.	.	.
=13	=13	=13	=13	=13	=13	=13	=13	=13	=13	=13	=13	=13	=13	=13
!	!	!	!LO:TX:a:t=P:problem=mixedbeam	!	!	!	!	!	!	!	!	!	!	!
16.G\LL	.	f	16.gg\LL	f	16.bb\LL	f	1.r	.	1.r	.	2.ryy	2.ryy	2.ryy	2.ryy
32G\K	.	.	32g/K	.	32gg\K	.	.	.	.	.	.	.	.	.
16.B\	.	.	16.b/	.	16.bb\	.	.	.	.	.	.	.	.	.
32D#X\JJk	.	.	32d#X\JJk	.	32dd#X\JJk	.	.	.	.	.	.	.	.	.
16.E\LL	.	.	16.e/LL	.	16.ee\LL	.	.	.	.	.	.	.	.	.
32E\K	.	.	32e/K	.	32ee\K	.	.	.	.	.	.	.	.	.
16.G\	.	.	16.g/	.	16.gg\	.	.	.	.	.	.	.	.	.
32BB\JJk	.	.	32B/JJk	.	32b\JJk	.	.	.	.	.	.	.	.	.
16.C\LL	.	.	16.c/LL	.	16.cc\LL	.	.	.	.	.	.	.	.	.
32C\K	.	.	32c/K	.	32cc\K	.	.	.	.	.	.	.	.	.
16.E\	.	.	16.e/	.	16.ee\	.	.	.	.	.	.	.	.	.
32C#X\JJk	.	.	32c#X/JJk	.	32cc\JJk	.	.	.	.	.	.	.	.	.
!	!	!	!	!	!LO:LB:g=original	!	!	!	!	!	!	!	!	!
=14	=14	=14	=14	=14	=14	=14	=14	=14	=14	=14	=14	=14	=14	=14
8D\	.	p	16d/LL	p	16dd\LL	.	.	.	.	.	2.ryy	2.ryy	2.ryy	2.ryy
.	.	.	16g/	.	16b\	.	.	.	.	.	.	.	.	.
8r	.	.	16g/	.	16b\	.	.	.	.	.	.	.	.	.
.	.	.	16b/JJ	.	16dd\JJ	.	.	.	.	.	.	.	.	.
8D\	.	.	4b/	.	4dd\	.	.	.	.	.	.	.	.	.
8r	.	.	.	.	.	.	.	.	.	.	.	.	.	.
8DD/	.	.	16b/LL	.	16dd\LL	.	.	.	.	.	.	.	.	.
.	.	.	16a/	.	16cc\	.	.	.	.	.	.	.	.	.
8r	.	.	16c/	.	16a\	.	.	.	.	.	.	.	.	.
.	.	.	16A/JJ	.	16f#\JJ	.	.	.	.	.	.	.	.	.
=15	=15	=15	=15	=15	=15	=15	=15	=15	=15	=15	=15	=15	=15	=15
!	!	!	!	!LO:DY:rj	!	!	!	!	!	!	!	!	!	!
8GG/	.	.	8B/L	pp	8g/L	.	2.r	.	2.r	.	2.ryy	2.ryy	2.ryy	2.ryy
8r	.	.	16B/L	.	16d/L	.	.	.	.	.	.	.	.	.
.	.	.	16c/JJ	.	16e/JJ	.	.	.	.	.	.	.	.	.
8GG/	.	.	16B/LL	.	16d/LL	.	.	.	.	.	.	.	.	.
.	.	.	16c/	.	16e/	.	.	.	.	.	.	.	.	.
8r	.	.	16B/	.	16d/	.	.	.	.	.	.	.	.	.
.	.	.	16c/JJ	.	16e/JJ	.	.	.	.	.	.	.	.	.
8GG/	.	.	8B/	.	4d/	.	.	.	.	.	.	.	.	.
8r	.	.	8r	.	.	.	.	.	.	.	.	.	.	.
!	!	!	!LO:LB:g=original	!	!	!	!	!	!	!	!	!	!	!
=16	=16	=16	=16	=16	=16	=16	=16	=16	=16	=16	=16	=16	=16	=16
*	*	*	*	*	*	*	*2\right	*	*2\right	*	*	*	*	*
!	!	!	!	!	!LO:TX:b:t=Verte Cito	!	!	!	!	!	!	!	!	!
!	!	!	!	!	!LO:TX:a:t=1	!	!	!	!LO:TX:a:t=Solo	!	!	!	!	!
8G\	.	p	16G/LL	.	2.r	.	2B\	Ro-	2d\	Ro-	2.ryy	2.ryy	2.ryy	2.ryy
.	.	.	16B/	.	.	.	.	.	.	.	.	.	.	.
8r	.	.	16d/	.	.	.	.	.	.	.	.	.	.	.
.	.	.	16B/JJ	.	.	.	.	.	.	.	.	.	.	.
*	*	*	*rep	*	*	*	*	*	*	*	*	*	*	*
8G\	.	.	16G/LL	.	.	.	.	.	.	.	.	.	.	.
.	.	.	16B/	.	.	.	.	.	.	.	.	.	.	.
8r	.	.	16d/	.	.	.	.	.	.	.	.	.	.	.
.	.	.	16B/JJ	.	.	.	.	.	.	.	.	.	.	.
*	*	*	*Xrep	*	*	*	*	*	*	*	*	*	*	*
8G\	.	.	16G/LL	.	.	.	4c\	-sa	16e\LL	-sa	.	.	.	.
.	.	.	16c/	.	.	.	.	.	16f#\	.	.	.	.	.
8r	.	.	16e/	.	.	.	.	.	16.g\	.	.	.	.	.
.	.	.	16c/JJ	.	.	.	.	.	.	.	.	.	.	.
.	.	.	.	.	.	.	.	.	32e\JJk	.	.	.	.	.
!LO:LB:g=original	!	!	!	!	!LO:PB:g=original	!	!	!	!	!	!	!	!	!
=17	=17	=17	=17	=17	=17	=17	=17	=17	=17	=17	=17	=17	=17	=17
8G\	.	.	16G/LL	.	4r	.	8.c\	mis-	8.e\	mi-	2.ryy	2.ryy	2.ryy	2.ryy
.	.	.	16c/	.	.	.	.	.	.	.	.	.	.	.
8r	.	.	16e/	.	.	.	.	.	.	.	.	.	.	.
.	.	.	16f#/JJ	.	.	.	16B\	-ti-	16d\	-sti-	.	.	.	.
8GG/	.	.	4g/	.	32r	.	4B\	-ca	4d\	-ca	.	.	.	.
!	!	!	!	!	!	!LO:DY:a	!	!	!	!	!	!	!	!
.	.	.	.	.	32f#/LLL	p	.	.	.	.	.	.	.	.
.	.	.	.	.	32a/	.	.	.	.	.	.	.	.	.
.	.	.	.	.	32b/JJJ	.	.	.	.	.	.	.	.	.
8r	.	.	.	.	32cc\LLL	.	.	.	.	.	.	.	.	.
.	.	.	.	.	32dd\	.	.	.	.	.	.	.	.	.
.	.	.	.	.	32ee\	.	.	.	.	.	.	.	.	.
.	.	.	.	.	32ff#\JJJ	.	.	.	.	.	.	.	.	.
4r	.	.	4r	.	32gg\LLL	.	4r	.	4r	.	.	.	.	.
.	.	.	.	.	32ff#\	.	.	.	.	.	.	.	.	.
.	.	.	.	.	32gg\	.	.	.	.	.	.	.	.	.
.	.	.	.	.	32aa\JJJ	.	.	.	.	.	.	.	.	.
.	.	.	.	.	32bb\LLL	.	.	.	.	.	.	.	.	.
!	!	!	!	!	!	!LO:DY:a	!	!	!	!	!	!	!	!
.	.	.	.	.	32aa\	f	.	.	.	.	.	.	.	.
.	.	.	.	.	32bb\	.	.	.	.	.	.	.	.	.
.	.	.	.	.	32ccc\JJJ	.	.	.	.	.	.	.	.	.
=18	=18	=18	=18	=18	=18	=18	=18	=18	=18	=18	=18	=18	=18	=18
8r	.	.	8r	.	4ddd\	.	8r	.	2d\	Iu-	2.ryy	2.ryy	2.ryy	2.ryy
8D\L	3_	.	8f#/L	.	.	.	8D\	Ju-	.	.	.	.	.	.
8E\	.	.	8g/	.	4r	.	8E\	-ris	.	.	.	.	.	.
8D\	.	.	8f#/	.	.	.	8F#\	.	.	.	.	.	.	.
8E\	.	.	8g/	.	4r	.	8G\	da-	8c#X\	-ris	.	.	.	.
8F#\J	x	.	8a/J	.	.	.	8A\	.	8cn\	da-	.	.	.	.
=19	=19	=19	=19	=19	=19	=19	=19	=19	=19	=19	=19	=19	=19	=19
4G\	.	.	8a/L	.	4r	.	8A\	-vi-	8.c\	-vi-	2.ryy	2.ryy	2.ryy	2.ryy
.	.	.	8g/J	.	.	.	8G\	-di-	.	.	.	.	.	.
.	.	.	.	.	.	.	.	.	16B\	-di-	.	.	.	.
4GG/	.	.	4g/	.	32r	.	4G\	-ca	4B\	-ca	.	.	.	.
.	.	.	.	.	32g/LLL	.	.	.	.	.	.	.	.	.
.	.	.	.	.	32a/	.	.	.	.	.	.	.	.	.
.	.	.	.	.	32b/JJJ	.	.	.	.	.	.	.	.	.
.	.	.	.	.	32cc\LLL	.	.	.	.	.	.	.	.	.
.	.	.	.	.	32dd\	.	.	.	.	.	.	.	.	.
.	.	.	.	.	32ee\	.	.	.	.	.	.	.	.	.
.	.	.	.	.	32ff#\JJJ	.	.	.	.	.	.	.	.	.
4r	.	.	4r	.	32gg\LLL	.	4r	.	4r	.	.	.	.	.
.	.	.	.	.	32ff#\	.	.	.	.	.	.	.	.	.
.	.	.	.	.	32gg\	.	.	.	.	.	.	.	.	.
.	.	.	.	.	32aa\JJJ	.	.	.	.	.	.	.	.	.
.	.	.	.	.	32bb\LLL	.	.	.	.	.	.	.	.	.
.	.	.	.	.	32aa\	.	.	.	.	.	.	.	.	.
.	.	.	.	.	32bb\	.	.	.	.	.	.	.	.	.
.	.	.	.	.	32ccc\JJJ	.	.	.	.	.	.	.	.	.
=20	=20	=20	=20	=20	=20	=20	=20	=20	=20	=20	=20	=20	=20	=20
8r	.	.	8r	.	4ddd\	.	8r	.	2d\	O-	2.ryy	2.ryy	2.ryy	2.ryy
8D\L	3_	.	8f#/L	.	.	.	8D\L	O-	.	.	.	.	.	.
8E\	.	.	8g/	.	4r	.	8E\	.	.	.	.	.	.	.
8D\	.	.	8f#/	.	.	.	8F#\J	.	.	.	.	.	.	.
8E\	.	.	8g/	.	4r	.	8G\	-ra	8c#X\	-ra	.	.	.	.
8F#\J	x	.	8a/J	.	.	.	8A\	pro	8cn\	pro	.	.	.	.
!	!	!	!	!	!LO:LB:g=original	!	!LO:LB:g=original	!	!LO:LB:g=original	!	!	!	!	!
=21	=21	=21	=21	=21	=21	=21	=21	=21	=21	=21	=21	=21	=21	=21
4G\	.	.	4g/	.	4r	.	8G\L	no-	16c\LL	no-	2.ryy	2.ryy	2.ryy	2.ryy
.	.	.	.	.	.	.	.	.	16B\	.	.	.	.	.
.	.	.	.	.	.	.	8D\J	.	16A\	.	.	.	.	.
.	.	.	.	.	.	.	.	.	16G\JJ	.	.	.	.	.
16r	.	.	16r	.	16r	.	8GG/	-bis	4G\	-bis	.	.	.	.
16G\LL	.	.	16g/LL	.	16gg\LL	.	.	.	.	.	.	.	.	.
16D\	.	.	16d/	.	16dd\	.	8r	.	.	.	.	.	.	.
16BB\JJ	.	.	16B/JJ	.	16b\JJ	.	.	.	.	.	.	.	.	.
8GG/	.	.	4G/	.	4g/	.	4r	.	4r	.	.	.	.	.
8r	.	.	.	.	.	.	.	.	.	.	.	.	.	.
=22	=22	=22	=22	=22	=22	=22	=22	=22	=22	=22	=22	=22	=22	=22
!	!	!	!	!	!LO:TX:a:t=1	!	!	!	!LO:TX:a:t=6	!	!	!	!	!
8G\	.	.	16G/LL	.	2.r	.	4G\	Ju-	0.r	.	2.ryy	2.ryy	2.ryy	2.ryy
.	.	.	16B/	.	.	.	.	.	.	.	.	.	.	.
8r	.	.	16d/	.	.	.	.	.	.	.	.	.	.	.
.	.	.	16B/JJ	.	.	.	.	.	.	.	.	.	.	.
*	*	*	*rep	*	*	*	*	*	*	*	*	*	*	*
8G\	.	.	16G/LL	.	.	.	8G\	-ris	.	.	.	.	.	.
.	.	.	16B/	.	.	.	.	.	.	.	.	.	.	.
8r	.	.	16d/	.	.	.	16G\LL	tu-	.	.	.	.	.	.
.	.	.	16B/JJ	.	.	.	16F#\JJ	.	.	.	.	.	.	.
*	*	*	*Xrep	*	*	*	*	*	*	*	*	*	*	*
*	*	*	*rep	*	*	*	*	*	*	*	*	*	*	*
8G\	.	.	16G/LL	.	.	.	16G\LL	-ris	.	.	.	.	.	.
.	.	.	16B/	.	.	.	16A\	.	.	.	.	.	.	.
8r	.	.	16d/	.	.	.	16B\	e	.	.	.	.	.	.
.	.	.	16B/JJ	.	.	.	16c#X\JJ	.	.	.	.	.	.	.
*	*	*	*Xrep	*	*	*	*	*	*	*	*	*	*	*
!	!	!	!LO:LB:g=original	!	!	!	!	!	!	!	!	!	!	!
=23	=23	=23	=23	=23	=23	=23	=23	=23	=23	=23	=23	=23	=23	=23
!	!	!	!	!	!	!	!LO:TX:a:t=P:problem=mixedbeam	!	!	!	!	!	!	!
8F#\	6 3	.	16A/LL	.	4r	.	8.d\L	bur-	.	.	2.ryy	2.ryy	2.ryy	2.ryy
.	.	.	16d/	.	.	.	.	.	.	.	.	.	.	.
8r	.	.	16f#/	.	.	.	.	.	.	.	.	.	.	.
.	.	.	16d/JJ	.	.	.	16D/Jk	-ne-	.	.	.	.	.	.
*	*	*	*rep	*	*	*	*	*	*	*	*	*	*	*
8F#\	.	.	16A/LL	.	4r	.	4D/	-a	.	.	.	.	.	.
.	.	.	16d/	.	.	.	.	.	.	.	.	.	.	.
8r	.	.	16f#/	.	.	.	.	.	.	.	.	.	.	.
.	.	.	16d/JJ	.	.	.	.	.	.	.	.	.	.	.
*	*	*	*Xrep	*	*	*	*	*	*	*	*	*	*	*
*	*	*	*rep	*	*	*	*	*	*	*	*	*	*	*
8F#\	.	.	16A/LL	.	32dd\LLL	.	4r	.	.	.	.	.	.	.
.	.	.	.	.	32ee\	p	.	.	.	.	.	.	.	.
.	.	.	16d/	.	32ff#\	.	.	.	.	.	.	.	.	.
.	.	.	.	.	32gg\JJJ	.	.	.	.	.	.	.	.	.
8r	.	.	16f#/	.	32aa\LLL	.	.	.	.	.	.	.	.	.
.	.	.	.	.	32bb\	.	.	.	.	.	.	.	.	.
.	.	.	16d/JJ	.	32ccc#X\	.	.	.	.	.	.	.	.	.
.	.	.	.	.	32ddd\JJJ	.	.	.	.	.	.	.	.	.
*	*	*	*Xrep	*	*	*	*	*	*	*	*	*	*	*
!LO:LB:g=original	!	!	!	!	!	!	!	!	!	!	!	!	!	!
=24	=24	=24	=24	=24	=24	=24	=24	=24	=24	=24	=24	=24	=24	=24
8C#X/	5 3	.	16A/LL	.	4ccc#X\	.	4.e\	Do-	.	.	2.ryy	2.ryy	2.ryy	2.ryy
.	.	.	16e/	.	.	.	.	.	.	.	.	.	.	.
8r	.	.	16g/	.	.	.	.	.	.	.	.	.	.	.
.	.	.	16e/JJ	.	.	.	.	.	.	.	.	.	.	.
*	*	*	*rep	*	*	*	*	*	*	*	*	*	*	*
8C#/	.	.	16A/LL	.	4r	.	.	.	.	.	.	.	.	.
.	.	.	16e/	.	.	.	.	.	.	.	.	.	.	.
*	*	*	*	*	*	*	*Xtuplet	*	*	*	*	*	*	*
8r	.	.	16g/	.	.	.	24d\LL	.	.	.	.	.	.	.
.	.	.	.	.	.	.	24c#X\	.	.	.	.	.	.	.
.	.	.	16e/JJ	.	.	.	.	.	.	.	.	.	.	.
.	.	.	.	.	.	.	24B\JJ	.	.	.	.	.	.	.
*	*	*	*Xrep	*	*	*	*	*	*	*	*	*	*	*
*	*	*	*rep	*	*	*	*	*	*	*	*	*	*	*
8C#/	.	.	16A/LL	.	4r	.	16A\LL	.	.	.	.	.	.	.
.	.	.	16e/	.	.	.	16B\JJ	.	.	.	.	.	.	.
8r	.	.	16g/	.	.	.	16A\LL	-mus	.	.	.	.	.	.
.	.	.	16e/JJ	.	.	.	16G\JJ	.	.	.	.	.	.	.
*	*	*	*Xrep	*	*	*	*	*	*	*	*	*	*	*
=25	=25	=25	=25	=25	=25	=25	=25	=25	=25	=25	=25	=25	=25	=25
8D/	3	.	16A/LL	.	4r	.	8.G\	au-	.	.	2.ryy	2.ryy	2.ryy	2.ryy
.	.	.	16d/	.	.	.	.	.	.	.	.	.	.	.
8r	.	.	16f#/	.	.	.	.	.	.	.	.	.	.	.
.	.	.	16d/JJ	.	.	.	16F#\	-re-	.	.	.	.	.	.
8D/	.	.	16A/LL	.	4r	.	4F#\	-a	.	.	.	.	.	.
.	.	.	16d/	.	.	.	.	.	.	.	.	.	.	.
8r	.	.	16f#/	.	.	.	.	.	.	.	.	.	.	.
.	.	.	16a/JJ	.	.	.	.	.	.	.	.	.	.	.
8D/	.	.	8dd\	.	16r	.	16r	.	.	.	.	.	.	.
.	.	.	.	.	16ff#\LL	.	16A\LL	O-	.	.	.	.	.	.
8r	.	.	8r	.	16gg\	.	16B\	.	.	.	.	.	.	.
.	.	.	.	.	16ee\JJ	.	16c#X\JJ	.	.	.	.	.	.	.
!	!	!	!	!	!	!	!LO:LB:g=original	!	!	!	!	!	!	!
=26	=26	=26	=26	=26	=26	=26	=26	=26	=26	=26	=26	=26	=26	=26
!	!	!	!LO:TX:a:t=1	!	!	!	!	!	!	!	!	!	!	!
8F#\	.	.	2.r	.	4.ff#\	.	4.d\	.	1.r	.	2.ryy	2.ryy	2.ryy	2.ryy
8r	.	.	.	.	.	.	.	.	.	.	.	.	.	.
8F#\	.	.	.	.	.	.	.	.	.	.	.	.	.	.
8r	.	.	.	.	24ee\LL	.	24c\LL	.	.	.	.	.	.	.
.	.	.	.	.	24gg\	.	24B\	.	.	.	.	.	.	.
.	.	.	.	.	24ff#\JJ	.	24A\JJ	.	.	.	.	.	.	.
16G\LL	.	.	.	.	16ee\LL	.	16G\LL	-ra	.	.	.	.	.	.
16F#\	.	.	.	.	16dd\	.	16F#\	.	.	.	.	.	.	.
16E\	.	.	.	.	16gg\	.	16E\	pro	.	.	.	.	.	.
16D\JJ	.	.	.	.	16ff#\JJ	.	16D\JJ	.	.	.	.	.	.	.
!	!	!	!	!	!LO:LB:g=original	!	!	!	!	!	!	!	!	!
=27	=27	=27	=27	=27	=27	=27	=27	=27	=27	=27	=27	=27	=27	=27
4A\	.	.	4r	.	4ff#\	.	4A\	no-	.	.	2.ryy	2.ryy	2.ryy	2.ryy
!	!	!	!	!	!LO:TX:a:t=P:problem=mixedbeam	!	!	!	!	!	!	!	!	!
16AA/LL	.	.	16r	.	16ee\LL	f	4AA/	-bis	.	.	.	.	.	.
16AA/	.	.	16A/LL	.	16a/	.	.	.	.	.	.	.	.	.
16C/	.	.	16c#X/	.	16cc/	.	.	.	.	.	.	.	.	.
16E/JJ	.	.	16e/JJ	.	16ee/JJ	.	.	.	.	.	.	.	.	.
4A\	.	.	8a/	.	4aa\	.	4r	.	.	.	.	.	.	.
.	.	.	8r	.	.	.	.	.	.	.	.	.	.	.
=28	=28	=28	=28	=28	=28	=28	=28	=28	=28	=28	=28	=28	=28	=28
!	!	!	!	!	!	!	!LO:TX:a:t=2	!	!	!	!	!	!	!
8C#X/	.	.	16A/LL	.	2.r	.	1.r	.	[4e\	Fe-	2.ryy	2.ryy	2.ryy	2.ryy
.	.	.	16e/	.	.	.	.	.	.	.	.	.	.	.
8r	.	.	16g/	.	.	.	.	.	.	.	.	.	.	.
.	.	.	16e/JJ	.	.	.	.	.	.	.	.	.	.	.
*	*	*	*rep	*	*	*	*	*	*	*	*	*	*	*
8C#/	.	.	16A/LL	.	.	.	.	.	16e\LL]	.	.	.	.	.
.	.	.	16e/	.	.	.	.	.	16d\	.	.	.	.	.
8r	.	.	16g/	.	.	.	.	.	16c\	.	.	.	.	.
.	.	.	16e/JJ	.	.	.	.	.	16B\JJ	.	.	.	.	.
*	*	*	*Xrep	*	*	*	*	*	*	*	*	*	*	*
*	*	*	*rep	*	*	*	*	*	*	*	*	*	*	*
8C#/	.	.	16A/LL	.	.	.	.	.	16A\LL	-de-	.	.	.	.
.	.	.	16e/	.	.	.	.	.	16B\	.	.	.	.	.
8r	.	.	16g/	.	.	.	.	.	16A\	-ris	.	.	.	.
.	.	.	16e/JJ	.	.	.	.	.	16G\JJ	.	.	.	.	.
*	*	*	*Xrep	*	*	*	*	*	*	*	*	*	*	*
!	!	!	!LO:LB:g=original	!	!	!	!	!	!	!	!	!	!	!
=29	=29	=29	=29	=29	=29	=29	=29	=29	=29	=29	=29	=29	=29	=29
8D/	.	.	16A/LL	.	4r	.	.	.	16G/LL	ar-	2.ryy	2.ryy	2.ryy	2.ryy
.	.	.	16d/	.	.	.	.	.	16F#/	.	.	.	.	.
8r	.	.	16f#/	.	.	.	.	.	16B/	.	.	.	.	.
.	.	.	16d/JJ	.	.	.	.	.	16A/JJ	.	.	.	.	.
*	*	*	*rep	*	*	*	*	*	*	*	*	*	*	*
8D/	.	.	16A/LL	.	32r	.	.	.	4A/	-ca	.	.	.	.
.	.	.	.	.	32dd\LLL	.	.	.	.	.	.	.	.	.
.	.	.	16d/	.	32ee\	.	.	.	.	.	.	.	.	.
.	.	.	.	.	32ff#\JJJ	.	.	.	.	.	.	.	.	.
8r	.	.	16f#/	.	32gg\LLL	.	.	.	.	.	.	.	.	.
.	.	.	.	.	32aa\	.	.	.	.	.	.	.	.	.
.	.	.	16d/JJ	.	32bb\	.	.	.	.	.	.	.	.	.
.	.	.	.	.	32ccc#X\JJJ	.	.	.	.	.	.	.	.	.
*	*	*	*Xrep	*	*	*	*	*	*	*	*	*	*	*
*	*	*	*rep	*	*	*	*	*	*	*	*	*	*	*
8D/	.	.	16A/LL	.	32ddd\LLL	.	.	.	4r	.	.	.	.	.
.	.	.	.	.	32ccc#X\	.	.	.	.	.	.	.	.	.
.	.	.	16d/	.	32bb\	.	.	.	.	.	.	.	.	.
.	.	.	.	.	32aa\JJJ	.	.	.	.	.	.	.	.	.
8r	.	.	16f#/	.	32gg\LLL	.	.	.	.	.	.	.	.	.
.	.	.	.	.	32ff#\	.	.	.	.	.	.	.	.	.
.	.	.	16d/JJ	.	32ee\	.	.	.	.	.	.	.	.	.
.	.	.	.	.	32dd\JJJ	.	.	.	.	.	.	.	.	.
*	*	*	*Xrep	*	*	*	*	*	*	*	*	*	*	*
!	!	!	!LO:LB:g=original	!	!	!	!	!	!	!	!	!	!	!
=30	=30	=30	=30	=30	=30	=30	=30	=30	=30	=30	=30	=30	=30	=30
!	!	!	!	!	!	!	!	!	!LO:TX:a:t=2	!	!	!	!	!
8E\	.	.	16G/LL	.	4aa\	.	16G\LL	O-	1.r	.	2.ryy	2.ryy	2.ryy	2.ryy
.	.	.	16A/	.	.	.	16A\	.	.	.	.	.	.	.
8r	.	.	16c#X/	.	.	.	16G\	.	.	.	.	.	.	.
.	.	.	16A/JJ	.	.	.	16F#\JJ	.	.	.	.	.	.	.
*	*	*	*rep	*	*	*	*	*	*	*	*	*	*	*
8E\	.	.	16G/LL	.	4r	.	16E\LL	-ra	.	.	.	.	.	.
.	.	.	16A/	.	.	.	16F#\	.	.	.	.	.	.	.
8r	.	.	16c#X/	.	.	.	16E\	.	.	.	.	.	.	.
.	.	.	16A/JJ	.	.	.	16D\JJ	.	.	.	.	.	.	.
*	*	*	*Xrep	*	*	*	*	*	*	*	*	*	*	*
8AA/	.	.	16G/LL	.	4r	.	16C\LL	pro	.	.	.	.	.	.
.	.	.	16A/	.	.	.	16E\	.	.	.	.	.	.	.
8r	.	.	16c#X/	.	.	.	16A\	.	.	.	.	.	.	.
.	.	.	16e/JJ	.	.	.	16G\JJ	.	.	.	.	.	.	.
!LO:PB:g=original	!	!	!	!	!	!	!	!	!	!	!	!	!	!
=31	=31	=31	=31	=31	=31	=31	=31	=31	=31	=31	=31	=31	=31	=31
8D\	.	.	16A/LL	.	4r	.	8E\L	no-	.	.	2.ryy	2.ryy	2.ryy	2.ryy
.	.	.	16d/	.	.	.	.	.	.	.	.	.	.	.
8r	.	.	16f#/	.	.	.	8F#\J	.	.	.	.	.	.	.
.	.	.	16d/JJ	.	.	.	.	.	.	.	.	.	.	.
*	*	*	*rep	*	*	*	*	*	*	*	*	*	*	*
8DD/	.	.	16A/LL	.	32r	.	4D\	-bis	.	.	.	.	.	.
.	.	.	.	.	32aa\LLL	.	.	.	.	.	.	.	.	.
.	.	.	16d/	.	32gg#X\	.	.	.	.	.	.	.	.	.
.	.	.	.	.	32aa\JJJ	.	.	.	.	.	.	.	.	.
8r	.	.	16f#/	.	32gg#\LLL	.	.	.	.	.	.	.	.	.
.	.	.	.	.	32aa\	.	.	.	.	.	.	.	.	.
.	.	.	16d/JJ	.	32gg#\	.	.	.	.	.	.	.	.	.
.	.	.	.	.	32aa\JJJ	.	.	.	.	.	.	.	.	.
*	*	*	*Xrep	*	*	*	*	*	*	*	*	*	*	*
*	*	*	*rep	*	*	*	*	*	*	*	*	*	*	*
!	!	!	!	!	!LO:LB:g=original	!	!	!	!	!	!	!	!	!
4r	.	.	16A/LL	.	32gg#\LLL	.	4r	.	.	.	.	.	.	.
.	.	.	.	.	32aa\	.	.	.	.	.	.	.	.	.
.	.	.	16d/	.	32bb\	.	.	.	.	.	.	.	.	.
.	.	.	.	.	32aa\JJJ	.	.	.	.	.	.	.	.	.
.	.	.	16f#/	.	32ggn\LLL	.	.	.	.	.	.	.	.	.
.	.	.	.	.	32ff#\	.	.	.	.	.	.	.	.	.
.	.	.	16d/JJ	.	32ee\	.	.	.	.	.	.	.	.	.
.	.	.	.	.	32dd\JJJ	.	.	.	.	.	.	.	.	.
*	*	*	*Xrep	*	*	*	*	*	*	*	*	*	*	*
=32	=32	=32	=32	=32	=32	=32	=32	=32	=32	=32	=32	=32	=32	=32
8C#X/	.	.	16A/LL	.	4cc#X\	.	1.r	.	[4e\	Ja-	2.ryy	2.ryy	2.ryy	2.ryy
.	.	.	16e/	.	.	.	.	.	.	.	.	.	.	.
8r	.	.	16g/	.	.	.	.	.	.	.	.	.	.	.
.	.	.	16e/JJ	.	.	.	.	.	.	.	.	.	.	.
*	*	*	*rep	*	*	*	*	*	*	*	*	*	*	*
8C#/	.	.	16A/LL	.	4r	.	.	.	16e\LL]	.	.	.	.	.
.	.	.	16e/	.	.	.	.	.	16d\	.	.	.	.	.
8r	.	.	16g/	.	.	.	.	.	16c\	.	.	.	.	.
.	.	.	16e/JJ	.	.	.	.	.	16B\JJ	.	.	.	.	.
*	*	*	*Xrep	*	*	*	*	*	*	*	*	*	*	*
*	*	*	*rep	*	*	*	*	*	*	*	*	*	*	*
8C#/	.	.	16A/LL	.	4r	.	.	.	16A\LL	-nu-	.	.	.	.
.	.	.	16e/	.	.	.	.	.	16B\	.	.	.	.	.
8r	.	.	16g/	.	.	.	.	.	16A\	-a	.	.	.	.
.	.	.	16e/JJ	.	.	.	.	.	16G\JJ	.	.	.	.	.
*	*	*	*Xrep	*	*	*	*	*	*	*	*	*	*	*
=33	=33	=33	=33	=33	=33	=33	=33	=33	=33	=33	=33	=33	=33	=33
8D/	.	.	16A/LL	.	4r	.	.	.	16G/LL	ce-	2.ryy	2.ryy	2.ryy	2.ryy
.	.	.	16d/	.	.	.	.	.	16F#/	.	.	.	.	.
8r	.	.	16f#/	.	.	.	.	.	16B/	.	.	.	.	.
.	.	.	16d/JJ	.	.	.	.	.	16A/JJ	.	.	.	.	.
*	*	*	*rep	*	*	*	*	*	*	*	*	*	*	*
8D/	.	.	16A/LL	.	32r	.	.	.	4A/	-li	.	.	.	.
.	.	.	.	.	32dd\LLL	.	.	.	.	.	.	.	.	.
.	.	.	16d/	.	32ee\	.	.	.	.	.	.	.	.	.
.	.	.	.	.	32ff#\JJJ	.	.	.	.	.	.	.	.	.
8r	.	.	16f#/	.	32gg\LLL	.	.	.	.	.	.	.	.	.
.	.	.	.	.	32aa\	.	.	.	.	.	.	.	.	.
.	.	.	16d/JJ	.	32bb\	.	.	.	.	.	.	.	.	.
.	.	.	.	.	32ccc\JJJ	.	.	.	.	.	.	.	.	.
*	*	*	*Xrep	*	*	*	*	*	*	*	*	*	*	*
*	*	*	*rep	*	*	*	*	*	*	*	*	*	*	*
8D/	.	.	16A/LL	.	32ddd\LLL	.	.	.	4r	.	.	.	.	.
.	.	.	.	.	32ccc\	.	.	.	.	.	.	.	.	.
.	.	.	16d/	.	32bb\	.	.	.	.	.	.	.	.	.
.	.	.	.	.	32aa\JJJ	.	.	.	.	.	.	.	.	.
8r	.	.	16f#/	.	32gg\LLL	.	.	.	.	.	.	.	.	.
.	.	.	.	.	32ff#\	.	.	.	.	.	.	.	.	.
.	.	.	16d/JJ	.	32ee\	.	.	.	.	.	.	.	.	.
.	.	.	.	.	32dd\JJJ	.	.	.	.	.	.	.	.	.
*	*	*	*Xrep	*	*	*	*	*	*	*	*	*	*	*
!	!	!	!LO:LB:g=original	!	!	!	!	!	!LO:LB:g=original	!	!	!	!	!
=34	=34	=34	=34	=34	=34	=34	=34	=34	=34	=34	=34	=34	=34	=34
!	!	!	!	!	!	!	!	!	!LO:TX:a:t=2	!	!	!	!	!
8E\	.	.	16G/LL	.	4cc#X\	.	16G\LL	O-	1.r	.	2.ryy	2.ryy	2.ryy	2.ryy
.	.	.	16A/	.	.	.	16A\	.	.	.	.	.	.	.
8r	.	.	16c#X/	.	.	.	16G\	.	.	.	.	.	.	.
.	.	.	16A/JJ	.	.	.	16F#\JJ	.	.	.	.	.	.	.
*	*	*	*rep	*	*	*	*	*	*	*	*	*	*	*
8E\	.	.	16G/LL	.	4r	.	16E\LL	-ra	.	.	.	.	.	.
.	.	.	16A/	.	.	.	16F#\	.	.	.	.	.	.	.
8r	.	.	16c#/	.	.	.	16E\	.	.	.	.	.	.	.
.	.	.	16A/JJ	.	.	.	16D\JJ	.	.	.	.	.	.	.
*	*	*	*Xrep	*	*	*	*	*	*	*	*	*	*	*
8AA/	.	.	16G/LL	.	4r	.	16C\LL	pro	.	.	.	.	.	.
.	.	.	16A/	.	.	.	16E\	.	.	.	.	.	.	.
8r	.	.	16c#X/	.	.	.	16A\	.	.	.	.	.	.	.
.	.	.	16e/JJ	.	.	.	16G\JJ	.	.	.	.	.	.	.
!	!	!	!	!	!	!	!LO:LB:g=original	!	!	!	!	!	!	!
=35	=35	=35	=35	=35	=35	=35	=35	=35	=35	=35	=35	=35	=35	=35
8D\	.	.	16d/LL	.	4r	.	8E\L	no-	.	.	2.ryy	2.ryy	2.ryy	2.ryy
.	.	.	16f#/	.	.	.	.	.	.	.	.	.	.	.
8r	.	.	16a/	.	.	.	8F#\J	.	.	.	.	.	.	.
.	.	.	16f#/JJ	.	.	.	.	.	.	.	.	.	.	.
8DD/	.	.	4d/	.	32r	.	4D\	-bis	.	.	.	.	.	.
.	.	.	.	.	32dd\LLL	.	.	.	.	.	.	.	.	.
.	.	.	.	.	32ee\	.	.	.	.	.	.	.	.	.
.	.	.	.	.	32ff#\JJJ	.	.	.	.	.	.	.	.	.
8r	.	.	.	.	32gg\LLL	.	.	.	.	.	.	.	.	.
.	.	.	.	.	32ff#\	.	.	.	.	.	.	.	.	.
.	.	.	.	.	32gg\	.	.	.	.	.	.	.	.	.
.	.	.	.	.	32aa\JJJ	.	.	.	.	.	.	.	.	.
4r	.	.	4r	.	16bb\LL	.	4r	.	.	.	.	.	.	.
.	.	.	.	.	16aa\	.	.	.	.	.	.	.	.	.
.	.	.	.	.	16bb\	.	.	.	.	.	.	.	.	.
.	.	.	.	.	16ccc#X\JJ	.	.	.	.	.	.	.	.	.
!	!	!	!	!	!LO:LB:g=original	!	!	!	!	!	!	!	!	!
=36	=36	=36	=36	=36	=36	=36	=36	=36	=36	=36	=36	=36	=36	=36
!	!	!	!LO:TX:a:t=P:problem=mixedbeam	!	!	!	!	!	!	!	!	!	!	!
8DD/L	1	.	8d/L	p	8ddd\L	.	8D\	Stel-	8D/	Stel-	2.ryy	2.ryy	2.ryy	2.ryy
8D/	8 6	.	8dd\J	.	8bb\J	.	8B\	-la	8d\	-la	.	.	.	.
8D/	.	.	4.dd\	.	4.bb\	.	4.B\	ma-	4.d\	ma-	.	.	.	.
8D/	.	.	.	.	.	.	.	.	.	.	.	.	.	.
8D/	.	.	.	.	.	.	.	.	.	.	.	.	.	.
8D/J	+ 5	.	8cc#X\	.	8aa\	.	8A\	-tu-	8c#X\	-tu-	.	.	.	.
=37	=37	=37	=37	=37	=37	=37	=37	=37	=37	=37	=37	=37	=37	=37
8DD/L	.	.	8.cc#X\L	.	8.aa\L	.	8.A\L	-ti-	8.c\L	-ti-	2.ryy	2.ryy	2.ryy	2.ryy
8D/J	.	.	.	.	.	.	.	.	.	.	.	.	.	.
.	.	.	16b\Jk	.	16gg\Jk	.	16G\Jk	.	16B\Jk	.	.	.	.	.
16DD/LL	.	.	16a/LL	f	16ff#\LL	f	4G\	-na	4A\	-na	.	.	.	.
16D/	.	.	16d/	.	16dd\	.	.	.	.	.	.	.	.	.
16C#X/	.	.	16c#X/	.	16cc#X\	.	.	.	.	.	.	.	.	.
16D/JJ	.	.	16d/JJ	.	16dd\JJ	.	.	.	.	.	.	.	.	.
16C#/LL	.	.	16c#/LL	.	16cc#\LL	.	4r	.	4r	.	.	.	.	.
16D/	.	.	16d/	.	16dd\	.	.	.	.	.	.	.	.	.
16C#/	.	.	16c#/	.	16cc#\	.	.	.	.	.	.	.	.	.
16D/JJ	.	.	16d/JJ	.	16dd\JJ	.	.	.	.	.	.	.	.	.
!LO:LB:g=original	!	!	!	!	!	!	!	!	!	!	!	!	!	!
=38	=38	=38	=38	=38	=38	=38	=38	=38	=38	=38	=38	=38	=38	=38
!	!	!	!LO:TX:a:t=P:problem=mixedbeam	!	!	!	!	!	!	!	!	!	!	!
8DD/L	.	.	8d/L	p	8dd\L	p	8F#\L	O-	8A\L	O-	2.ryy	2.ryy	2.ryy	2.ryy
8D/	.	p	8b\J	.	8gg\J	.	8G\J	.	8B\J	.	.	.	.	.
2D/J	.	.	4.b\	.	4.gg\	.	4.G\	-ra	4.B\	-ra	.	.	.	.
.	.	.	8a\	.	8ff#\	.	8F#\	pro	8A\	pro	.	.	.	.
=39	=39	=39	=39	=39	=39	=39	=39	=39	=39	=39	=39	=39	=39	=39
8DD/L	.	.	8.a/L	.	8.ff#\L	.	8.F#\L	no-	8.A\L	no-	2.ryy	2.ryy	2.ryy	2.ryy
8D/J	.	.	.	.	.	.	.	.	.	.	.	.	.	.
.	.	.	16g/Jk	.	16ee\Jk	.	16E\Jk	.	16G\Jk	.	.	.	.	.
16DD/LL	.	.	16f#/LL	f	16dd\LL	f	4E\	-bis	4F#/	-bis	.	.	.	.
16D/	.	.	16d/	.	16dd\	.	.	.	.	.	.	.	.	.
16C#X/	.	f	16c#X/	.	16cc#X\	.	.	.	.	.	.	.	.	.
16D/JJ	.	.	16d/JJ	.	16dd\JJ	.	.	.	.	.	.	.	.	.
!	!	!	!LO:LB:g=original	!	!	!	!	!	!	!	!	!	!	!
16C#/LL	.	.	16c#/LL	.	16cc#\LL	.	4r	.	4r	.	.	.	.	.
16D/	.	.	16d/	.	16dd\	.	.	.	.	.	.	.	.	.
16C#/	.	.	16c#/	.	16cc#\	.	.	.	.	.	.	.	.	.
16D/JJ	.	.	16d/JJ	.	16dd\JJ	.	.	.	.	.	.	.	.	.
=40	=40	=40	=40	=40	=40	=40	=40	=40	=40	=40	=40	=40	=40	=40
8F#\L	.	p	8f#/L	p	8a/L	p	8F#\L	O-	8A\L	O-	2.ryy	2.ryy	2.ryy	2.ryy
8G\	.	.	8g/	.	8b/	.	8G\J	.	8B\J	.	.	.	.	.
8A\	.	.	8e/	.	8cc#X/	.	8A\	-ra	8c#X\	-ra	.	.	.	.
8B\	.	.	8f#/	.	8dd/	.	8B\	pro-	8d\	pro	.	.	.	.
8G\	.	.	8g/	.	8ee/	.	8F#\L	-no-	8e\L	no-	.	.	.	.
8A\J	.	.	8e/J	.	8cc#/J	.	8A\J	.	8c#\J	.	.	.	.	.
!	!	!	!	!	!	!	!LO:LB:g=original	!	!LO:LB:g=original	!	!	!	!	!
=41	=41	=41	=41	=41	=41	=41	=41	=41	=41	=41	=41	=41	=41	=41
!	!	!	!	!LO:DY:t=f.	!LO:TX:a:t=P:problem=mixedbeam	!	!	!	!	!	!	!	!	!
16.D\LL	.	f	16.f#/LL	f	16.dd\LL	f	4D\	-bis	4d\	-bi	2.ryy	2.ryy	2.ryy	2.ryy
32D\K	.	.	32d/K	.	32d/K	.	.	.	.	.	.	.	.	.
16.F#\	.	.	16.f#/	.	16.f#/	.	.	.	.	.	.	.	.	.
32D\JJk	.	.	32d/JJk	.	32d/JJk	.	.	.	.	.	.	.	.	.
!	!	!	!	!	!LO:LB:g=original	!	!	!	!	!	!	!	!	!
16.G\LL	.	.	16.g/LL	.	16.g/LL	.	4r	.	4r	.	.	.	.	.
32E\K	.	.	32e/K	.	32e/K	.	.	.	.	.	.	.	.	.
16.A\	.	.	16.a/	.	16.a/	.	.	.	.	.	.	.	.	.
32F#\JJk	.	.	32f#/JJk	.	32f#/JJk	.	.	.	.	.	.	.	.	.
!	!	!	!	!	!	!	!LO:TX:a:t=vi	!	!	!	!	!	!	!
16.B\LL	.	.	16.b/LL	.	16.b/LL	.	4r	.	4r	.	.	.	.	.
32G\K	.	.	32g/K	.	32g/K	.	.	.	.	.	.	.	.	.
16.c\	.	.	16.cc#X/	.	16.cc#X/	.	.	.	.	.	.	.	.	.
32A\JJk	.	.	32a/JJk	.	32a/JJk	.	.	.	.	.	.	.	.	.
=42	=42	=42	=42	=42	=42	=42	=42	=42	=42	=42	=42	=42	=42	=42
!	!	!	!LO:TX:a:t=P:problem=mixedbeam	!	!	!	!LO:TX:a:t=de	!	!	!	!	!	!	!
8d\L	.	p	8dd\L	p	8dd\L	p	8D\	Stel-	8F#/	Stel-	2.ryy	2.ryy	2.ryy	2.ryy
8D\	.	.	8d/J	.	8b\J	.	8G\	-la	8B/	-la	.	.	.	.
2D\J	.	.	4.d/	.	4.b\	.	4.G\	Ma-	4.B/	ma-	.	.	.	.
.	.	.	8c#X/	.	8a\	.	8F#\	-tu-	8A/	-tu-	.	.	.	.
=43	=43	=43	=43	=43	=43	=43	=43	=43	=43	=43	=43	=43	=43	=43
8DD/L	.	.	8.c#X/L	.	8.a/L	.	8.F#\L	-ti-	8.A/L	-ti-	2.ryy	2.ryy	2.ryy	2.ryy
8D/J	.	.	.	.	.	.	.	.	.	.	.	.	.	.
.	.	.	16B/Jk	.	16g/Jk	.	16E\Jk	.	16G/Jk	.	.	.	.	.
16DD/LL	.	.	16A/LL	.	16f#/LL	f	4D\	-na	4F#/	-na	.	.	.	.
16D/	.	.	16d/	.	16d/	.	.	.	.	.	.	.	.	.
16C#X/	.	f	16c#X/	.	16c#X/	.	.	.	.	.	.	.	.	.
16D/JJ	.	.	16d/JJ	.	16d/JJ	.	.	.	.	.	.	.	.	.
16C#/LL	.	.	16c#/LL	.	16c#/LL	.	4r	.	4r	.	.	.	.	.
16D/	.	.	16d/	.	16d/	.	.	.	.	.	.	.	.	.
16C#/	.	.	16c#/	.	16c#/	.	.	.	.	.	.	.	.	.
16D/JJ	.	.	16d/JJ	.	16d/JJ	.	.	.	.	.	.	.	.	.
!LO:LB:g=original	!	!	!	!	!	!	!	!	!	!	!	!	!	!
=44	=44	=44	=44	=44	=44	=44	=44	=44	=44	=44	=44	=44	=44	=44
!LO:TX:a:t=P:problem=mixedbeam	!	!	!	!	!	!	!	!	!	!	!	!	!	!
8DD/L	.	.	8d/L	p	8d/L	p	8D\L	O-	8F#/L	O-	2.ryy	2.ryy	2.ryy	2.ryy
8D\J	.	p	8B/J	.	8g/J	.	8E\J	.	8G/J	.	.	.	.	.
*2\right	*	*	*	*	*	*	*	*	*	*	*	*	*	*
*tremolo	*	*	*	*	*	*	*	*	*	*	*	*	*	*
8D\L	.	.	4.B/	.	4.g/	.	4.E\	-ra	4.G/	-ra	.	.	.	.
8D\	.	.	.	.	.	.	.	.	.	.	.	.	.	.
8D\	.	.	.	.	.	.	.	.	.	.	.	.	.	.
8D\J	.	.	8A/	.	8f#/	.	8D\	pro	8F#/	pro	.	.	.	.
*Xtremolo	*	*	*	*	*	*	*	*	*	*	*	*	*	*
!	!	!	!LO:LB:g=original	!	!	!	!	!	!	!	!	!	!	!
=45	=45	=45	=45	=45	=45	=45	=45	=45	=45	=45	=45	=45	=45	=45
8DD/L	.	.	8.A/L	.	8.f#/L	.	8.D/L	no-	8.F#/L	no-	2.ryy	2.ryy	2.ryy	2.ryy
8D/J	.	.	.	.	.	.	.	.	.	.	.	.	.	.
.	.	.	16c#X/Jk	.	16e/Jk	.	16C/Jk	.	16E/Jk	.	.	.	.	.
16DD/LL	.	.	16d/LL	f	16d/LL	f	4BB/	-bis	4D/	-bis	.	.	.	.
16D/	.	.	16d/	.	16d/	.	.	.	.	.	.	.	.	.
16C#X/	.	f	16c#X/	.	16c#X/	.	.	.	.	.	.	.	.	.
16D/JJ	.	.	16d/JJ	.	16d/JJ	.	.	.	.	.	.	.	.	.
16C#/LL	.	.	16c#/LL	.	16c#/LL	.	4r	.	4r	.	.	.	.	.
16D/	.	.	16d/	.	16d/	.	.	.	.	.	.	.	.	.
16C#/	.	.	16c#/	.	16c#/	.	.	.	.	.	.	.	.	.
16D/JJ	.	.	16d/JJ	.	16d/JJ	.	.	.	.	.	.	.	.	.
=46	=46	=46	=46	=46	=46	=46	=46	=46	=46	=46	=46	=46	=46	=46
8F#\L	.	p	8f#/L	p	8a/L	.	8D\L	O-	8F#/L	O-	2.ryy	2.ryy	2.ryy	2.ryy
8G\	.	.	8g/	.	8b/	.	8E\J	.	8G/J	.	.	.	.	.
8A\	.	.	8e/	.	8cc#X/	.	8C/L	-ra	8E/	-ra	.	.	.	.
8B\	.	.	8f#/	.	8dd/	.	8D/J	pro	8F#/	pro	.	.	.	.
8G\	.	.	8g/	.	8ee/	.	8E\L	no-	8G/L	no-	.	.	.	.
8A\J	.	.	8e/J	.	8cc#X/J	.	8C\J	.	8E/J	.	.	.	.	.
!	!	!	!	!	!LO:LB:g=original	!	!	!	!LO:LB:g=original	!	!	!	!	!
=47	=47	=47	=47	=47	=47	=47	=47	=47	=47	=47	=47	=47	=47	=47
*	*	*	*	*	*2\right	*	*	*	*	*	*	*	*	*
8D/	.	.	16d/LL	.	2aa\	.	4D\	-bis	4F#/	-bis	2.ryy	2.ryy	2.ryy	2.ryy
.	.	.	16f#/	.	.	.	.	.	.	.	.	.	.	.
8r	.	.	16a/	.	.	.	.	.	.	.	.	.	.	.
.	.	.	16f#/JJ	.	.	.	.	.	.	.	.	.	.	.
*	*	*	*rep	*	*	*	*	*	*	*	*	*	*	*
8D/	.	.	16d/LL	.	.	.	4r	.	4r	.	.	.	.	.
.	.	.	16f#/	.	.	.	.	.	.	.	.	.	.	.
8r	.	.	16a/	.	.	.	.	.	.	.	.	.	.	.
.	.	.	16f#/JJ	.	.	.	.	.	.	.	.	.	.	.
*	*	*	*Xrep	*	*	*	*	*	*	*	*	*	*	*
!	!	!	!	!	!	!	!LO:TX:a:t=re	!	!	!	!	!	!	!
8D/	.	.	16d/LL	.	16bb\LL	.	4r	.	4r	.	.	.	.	.
.	.	.	16g/	.	16ccc#X\	.	.	.	.	.	.	.	.	.
8r	.	.	16b/	.	16ddd\	.	.	.	.	.	.	.	.	.
.	.	.	16g/JJ	.	16bb\JJ	.	.	.	.	.	.	.	.	.
!	!	!	!	!	!	!	!LO:LB:g=original	!	!	!	!	!	!	!
=48	=48	=48	=48	=48	=48	=48	=48	=48	=48	=48	=48	=48	=48	=48
!	!	!	!	!	!	!	!LO:TX:a:t=12	!	!	!	!	!	!	!
!	!	!	!	!	!	!	!LO:TX:a:t=tro	!	!LO:TX:a:t=12	!	!	!	!	!
8D/	.	.	16d/LL	.	8bb\L	.	0.r	.	0.r	.	2.ryy	2.ryy	2.ryy	2.ryy
.	.	.	16f#/	.	.	.	.	.	.	.	.	.	.	.
8r	.	.	16a/	.	8aa\J	.	.	.	.	.	.	.	.	.
.	.	.	16f#/JJ	.	.	.	.	.	.	.	.	.	.	.
*	*	*	*rep	*	*	*	*	*	*	*	*	*	*	*
8D/	.	.	16d/LL	.	4aa\	.	.	.	.	.	.	.	.	.
.	.	.	16f#/	.	.	.	.	.	.	.	.	.	.	.
8r	.	.	16a/	.	.	.	.	.	.	.	.	.	.	.
.	.	.	16f#/JJ	.	.	.	.	.	.	.	.	.	.	.
*	*	*	*Xrep	*	*	*	*	*	*	*	*	*	*	*
*	*	*	*rep	*	*	*	*	*	*	*	*	*	*	*
8D/	.	.	16d/LL	.	16a\LL	.	.	.	.	.	.	.	.	.
.	.	.	16f#/	.	16dd\	.	.	.	.	.	.	.	.	.
8r	.	.	16a/	.	16ff#\	.	.	.	.	.	.	.	.	.
.	.	.	16f#/JJ	.	16aa\JJ	.	.	.	.	.	.	.	.	.
*	*	*	*Xrep	*	*	*	*	*	*	*	*	*	*	*
=49	=49	=49	=49	=49	=49	=49	=49	=49	=49	=49	=49	=49	=49	=49
8AA/	.	.	16A/LL	.	16gg\LL	.	.	.	.	.	2.ryy	2.ryy	2.ryy	2.ryy
.	.	.	16e/	.	16ee\	.	.	.	.	.	.	.	.	.
8r	.	.	16g/	.	16cc#X\	.	.	.	.	.	.	.	.	.
.	.	.	16e/JJ	.	16a\JJ	.	.	.	.	.	.	.	.	.
*	*	*	*rep	*	*	*	*	*	*	*	*	*	*	*
8AA/	.	.	16A/LL	.	16g/LL	.	.	.	.	.	.	.	.	.
.	.	.	16e/	.	16e/	.	.	.	.	.	.	.	.	.
8r	.	.	16g/	.	16c#X/	.	.	.	.	.	.	.	.	.
.	.	.	16e/JJ	.	16A/JJ	.	.	.	.	.	.	.	.	.
*	*	*	*Xrep	*	*	*	*	*	*	*	*	*	*	*
*	*	*	*rep	*	*	*	*	*	*	*	*	*	*	*
8AA/	.	.	16A/LL	.	16c#/LL	.	.	.	.	.	.	.	.	.
.	.	.	16e/	.	16e/	.	.	.	.	.	.	.	.	.
8r	.	.	16g/	.	16a/	.	.	.	.	.	.	.	.	.
.	.	.	16e/JJ	.	16g/JJ	.	.	.	.	.	.	.	.	.
*	*	*	*Xrep	*	*	*	*	*	*	*	*	*	*	*
=50	=50	=50	=50	=50	=50	=50	=50	=50	=50	=50	=50	=50	=50	=50
8D\	.	.	16A/LL	.	8e#X/L	.	.	.	.	.	2.ryy	2.ryy	2.ryy	2.ryy
.	.	.	16d/	.	.	.	.	.	.	.	.	.	.	.
8r	.	.	16f#/	.	8f#/J	.	.	.	.	.	.	.	.	.
.	.	.	16d/JJ	.	.	.	.	.	.	.	.	.	.	.
*	*	*	*rep	*	*	*	*	*	*	*	*	*	*	*
8D\	.	.	16A/LL	.	4.f#/	.	.	.	.	.	.	.	.	.
.	.	.	16d/	.	.	.	.	.	.	.	.	.	.	.
8r	.	.	16f#/	.	.	.	.	.	.	.	.	.	.	.
.	.	.	16d/JJ	.	.	.	.	.	.	.	.	.	.	.
*	*	*	*Xrep	*	*	*	*	*	*	*	*	*	*	*
8E\	.	.	16A/LL	.	.	.	.	.	.	.	.	.	.	.
.	.	.	16d/	.	.	.	.	.	.	.	.	.	.	.
8r	.	.	16e/	.	8g/	.	.	.	.	.	.	.	.	.
.	.	.	16c/JJ	.	.	.	.	.	.	.	.	.	.	.
!LO:LB:g=original	!	!	!LO:LB:g=original	!	!	!	!	!	!	!	!	!	!	!
=51	=51	=51	=51	=51	=51	=51	=51	=51	=51	=51	=51	=51	=51	=51
8F#\L	.	.	16d/LL	.	16a\LL	.	.	.	.	.	2.ryy	2.ryy	2.ryy	2.ryy
.	.	.	16A/	.	16dd\	.	.	.	.	.	.	.	.	.
8AA\	.	.	16d/	.	16ff#\	.	.	.	.	.	.	.	.	.
.	.	.	16A/JJ	.	16aa\JJ	.	.	.	.	.	.	.	.	.
8D\	.	.	16f#/LL	.	8.ddd\L	.	.	.	.	.	.	.	.	.
.	.	.	16A/	.	.	.	.	.	.	.	.	.	.	.
8AA\	.	.	16d/	.	.	.	.	.	.	.	.	.	.	.
.	.	.	16A/JJ	.	16aa\Jk	.	.	.	.	.	.	.	.	.
8C\	.	.	16e/LL	.	16gg\LL	.	.	.	.	.	.	.	.	.
.	.	.	16A/	.	16aa\	.	.	.	.	.	.	.	.	.
8AA\J	.	.	16c#X/	.	16ee\	.	.	.	.	.	.	.	.	.
.	.	.	16A/JJ	.	16aa\JJ	.	.	.	.	.	.	.	.	.
=52	=52	=52	=52	=52	=52	=52	=52	=52	=52	=52	=52	=52	=52	=52
8F#\L	.	.	16d/LL	.	16ff#\LL	.	0.r	.	0.r	.	2.ryy	2.ryy	2.ryy	2.ryy
.	.	.	16A/	.	16dd\	.	.	.	.	.	.	.	.	.
8AA\	.	.	16d/	.	16ff#\	.	.	.	.	.	.	.	.	.
.	.	.	16A/JJ	.	16aa\JJ	.	.	.	.	.	.	.	.	.
!	!	!	!	!	!LO:LB:g=original	!	!	!	!	!	!	!	!	!
8D\	.	.	16f#/LL	.	16ddd\LL	.	.	.	.	.	.	.	.	.
.	.	.	16A/	.	16aa\	.	.	.	.	.	.	.	.	.
8AA\	.	.	16d/	.	16ff#\	.	.	.	.	.	.	.	.	.
.	.	.	16A/JJ	.	16aa\JJ	.	.	.	.	.	.	.	.	.
8C\	.	.	16e/LL	.	16gg\LL	.	.	.	.	.	.	.	.	.
.	.	.	16A/	.	16aa\	.	.	.	.	.	.	.	.	.
8AA\J	.	.	16c#X/	.	16ee\	.	.	.	.	.	.	.	.	.
.	.	.	16A/JJ	.	16aa\JJ	.	.	.	.	.	.	.	.	.
=53	=53	=53	=53	=53	=53	=53	=53	=53	=53	=53	=53	=53	=53	=53
!	!	!	!	!	!LO:TX:a:t=P:problem=mixed beam	!	!	!	!	!	!	!	!	!
4D\	.	.	4f#/ 4A/	.	32ff#\LLL	.	.	.	.	.	2.ryy	2.ryy	2.ryy	2.ryy
.	.	.	.	.	32d/	.	.	.	.	.	.	.	.	.
.	.	.	.	.	32e/	.	.	.	.	.	.	.	.	.
.	.	.	.	.	32f#/JJJ	.	.	.	.	.	.	.	.	.
.	.	.	.	.	32g/LLL	.	.	.	.	.	.	.	.	.
.	.	.	.	.	32a/	.	.	.	.	.	.	.	.	.
.	.	.	.	.	32b/	.	.	.	.	.	.	.	.	.
.	.	.	.	.	32cc/JJJ	.	.	.	.	.	.	.	.	.
!	!	!	!	!	!LO:TX:a:t=P:problem=mixedbeam	!	!	!	!	!	!	!	!	!
4r	.	.	4r	.	32dd\LLL	.	.	.	.	.	.	.	.	.
.	.	.	.	.	32f#/	.	.	.	.	.	.	.	.	.
.	.	.	.	.	32g/	.	.	.	.	.	.	.	.	.
.	.	.	.	.	32a/JJJ	.	.	.	.	.	.	.	.	.
.	.	.	.	.	32b\LLL	.	.	.	.	.	.	.	.	.
.	.	.	.	.	32cc\	.	.	.	.	.	.	.	.	.
.	.	.	.	.	32dd\	.	.	.	.	.	.	.	.	.
.	.	.	.	.	32ee\JJJ	.	.	.	.	.	.	.	.	.
4r	.	.	4r	.	32ff#\LLL	.	.	.	.	.	.	.	.	.
.	.	.	.	.	32a\	.	.	.	.	.	.	.	.	.
.	.	.	.	.	32b\	.	.	.	.	.	.	.	.	.
.	.	.	.	.	32cc\JJJ	.	.	.	.	.	.	.	.	.
.	.	.	.	.	32dd\LLL	.	.	.	.	.	.	.	.	.
.	.	.	.	.	32ee\	.	.	.	.	.	.	.	.	.
.	.	.	.	.	32ff#\	.	.	.	.	.	.	.	.	.
.	.	.	.	.	32gg\JJJ	.	.	.	.	.	.	.	.	.
=54	=54	=54	=54	=54	=54	=54	=54	=54	=54	=54	=54	=54	=54	=54
8F#\	.	.	16r	.	8aa\L	.	.	.	.	.	2.ryy	2.ryy	2.ryy	2.ryy
.	.	.	16a/LL 16d/	.	.	.	.	.	.	.	.	.	.	.
8r	.	.	16a/ 16d/	.	8.aa\J	.	.	.	.	.	.	.	.	.
.	.	.	16a/JJ 16d/	.	.	.	.	.	.	.	.	.	.	.
8F#\	.	.	16r	.	.	.	.	.	.	.	.	.	.	.
!	!	!	!	!	!LO:N:vis=32	!	!	!	!	!	!	!	!	!
.	.	.	16a/LL 16d/	.	16bb\LL	.	.	.	.	.	.	.	.	.
!	!	!	!	!	!LO:N:vis=32	!	!	!	!	!	!	!	!	!
8r	.	.	16a/ 16d/	.	16ccc#X\	.	.	.	.	.	.	.	.	.
!	!	!	!	!	!LO:N:vis=32	!	!	!	!	!	!	!	!	!
.	.	.	16a/JJ 16d/	.	16ddd\JJ	.	.	.	.	.	.	.	.	.
8F#\	.	.	16r	.	16ccc#X\LL	.	.	.	.	.	.	.	.	.
.	.	.	16a/LL 16d/	.	16ddd\	.	.	.	.	.	.	.	.	.
8r	.	.	16a/ 16d/	.	16aa\	.	.	.	.	.	.	.	.	.
!	!	!	!LO:TX:b:t=Verte Cito	!	!	!	!	!	!	!	!	!	!	!
.	.	.	16a/JJ 16d/	.	16ff#\JJ	.	.	.	.	.	.	.	.	.
!	!	!	!LO:PB:g=original	!	!	!	!	!	!	!	!	!	!	!
=55	=55	=55	=55	=55	=55	=55	=55	=55	=55	=55	=55	=55	=55	=55
8G\	.	.	16r	.	16aa#X\LL	.	.	.	.	.	2.ryy	2.ryy	2.ryy	2.ryy
.	.	.	16b/LL 16d/	.	16bb\	.	.	.	.	.	.	.	.	.
8r	.	.	16b/ 16d/	.	16gg\	.	.	.	.	.	.	.	.	.
.	.	.	16b/JJ 16d/	.	16ee\JJ	.	.	.	.	.	.	.	.	.
8A\	.	.	16r	.	8.dd\L	.	.	.	.	.	.	.	.	.
.	.	.	16f#/LL 16d/	.	.	.	.	.	.	.	.	.	.	.
8r	.	.	16f#/ 16d/	.	.	.	.	.	.	.	.	.	.	.
.	.	.	16f#/JJ 16d/	.	16ff#\Jk	.	.	.	.	.	.	.	.	.
!	!	!	!	!	!LO:LB:g=original	!	!	!	!	!	!	!	!	!
8AA/	.	.	16r	.	16aa#\LL	.	.	.	.	.	.	.	.	.
.	.	.	16cc/LL 16e/	.	16gg\	.	.	.	.	.	.	.	.	.
8r	.	.	16cc/ 16e/	.	16ee\	.	.	.	.	.	.	.	.	.
.	.	.	16cc/JJ 16e/	.	16cc#X\JJ	.	.	.	.	.	.	.	.	.
=56	=56	=56	=56	=56	=56	=56	=56	=56	=56	=56	=56	=56	=56	=56
8BB/	.	.	16r	.	16cc#X\LL	.	0.r	.	0.r	.	2.ryy	2.ryy	2.ryy	2.ryy
.	.	.	16dd/LL 16f#/	.	16dd\J	.	.	.	.	.	.	.	.	.
8r	.	.	16dd/ 16f#/	.	8dd\J	.	.	.	.	.	.	.	.	.
.	.	.	16dd/JJ 16f#/	.	.	.	.	.	.	.	.	.	.	.
8F#\	.	.	16r	.	32r	.	.	.	.	.	.	.	.	.
.	.	.	.	.	32dd\LLL	.	.	.	.	.	.	.	.	.
.	.	.	16a/LL 16d/	.	32ee\	.	.	.	.	.	.	.	.	.
.	.	.	.	.	32ff#\JJJ	.	.	.	.	.	.	.	.	.
8r	.	.	16a/ 16d/	.	32gg\LLL	.	.	.	.	.	.	.	.	.
.	.	.	.	.	32aa\	.	.	.	.	.	.	.	.	.
.	.	.	16a/JJ 16d/	.	32bb\	.	.	.	.	.	.	.	.	.
.	.	.	.	.	32ccc#X\JJJ	.	.	.	.	.	.	.	.	.
8F#\	.	.	16r	.	32ddd\LLL	.	.	.	.	.	.	.	.	.
.	.	.	.	.	32ccc#\	.	.	.	.	.	.	.	.	.
.	.	.	16a/LL 16d/	.	32ddd\	.	.	.	.	.	.	.	.	.
.	.	.	.	.	32ccc#\JJJ	.	.	.	.	.	.	.	.	.
8r	.	.	16a/ 16d/	.	32ddd\LLL	.	.	.	.	.	.	.	.	.
.	.	.	.	.	32aa\	.	.	.	.	.	.	.	.	.
.	.	.	16a/JJ 16d/	.	32bb\	.	.	.	.	.	.	.	.	.
.	.	.	.	.	32cccn\JJJ	.	.	.	.	.	.	.	.	.
=57	=57	=57	=57	=57	=57	=57	=57	=57	=57	=57	=57	=57	=57	=57
8G\	.	.	16r	.	4bb\	.	.	.	.	.	2.ryy	2.ryy	2.ryy	2.ryy
.	.	.	16b/LL 16d/	.	.	.	.	.	.	.	.	.	.	.
8r	.	.	16b/ 16d/	.	.	.	.	.	.	.	.	.	.	.
.	.	.	16b/JJ 16d/	.	.	.	.	.	.	.	.	.	.	.
8G\	.	.	16r	.	16bb\LL	.	.	.	.	.	.	.	.	.
.	.	.	16b/LL 16d/	.	16ccc#X\	.	.	.	.	.	.	.	.	.
8r	.	.	16b/ 16d/	.	16ddd\	.	.	.	.	.	.	.	.	.
.	.	.	16b/JJ 16d/	.	16ddd#X\JJ	.	.	.	.	.	.	.	.	.
8G\	.	.	16r	.	16eee\LL	.	.	.	.	.	.	.	.	.
.	.	.	16b/LL 16d/	.	16dddn\	.	.	.	.	.	.	.	.	.
8r	.	.	16b/ 16d/	.	16ccc#X\	.	.	.	.	.	.	.	.	.
.	.	.	16b/JJ 16d/	.	16bb\JJ	.	.	.	.	.	.	.	.	.
!LO:LB:g=original	!	!	!	!	!	!	!	!	!	!	!	!	!	!
=58	=58	=58	=58	=58	=58	=58	=58	=58	=58	=58	=58	=58	=58	=58
8A\	.	.	16r	.	32aa\LLL	.	.	.	.	.	2.ryy	2.ryy	2.ryy	2.ryy
.	.	.	.	.	32bb\	.	.	.	.	.	.	.	.	.
.	.	.	16f#/LL 16d/	.	32ccc\	.	.	.	.	.	.	.	.	.
.	.	.	.	.	32ddd\JJJ	.	.	.	.	.	.	.	.	.
8r	.	.	16f#/ 16d/	.	32aa\LLL	.	.	.	.	.	.	.	.	.
.	.	.	.	.	32bb\	.	.	.	.	.	.	.	.	.
.	.	.	16f#/JJ 16d/	.	32ccc\	.	.	.	.	.	.	.	.	.
.	.	.	.	.	32ddd\JJJ	.	.	.	.	.	.	.	.	.
!	!	!	!LO:LB:g=original	!	!	!	!	!	!	!	!	!	!	!
8A\	.	.	16r	.	4a/	.	.	.	.	.	.	.	.	.
.	.	.	16f#/LL 16d/	.	.	.	.	.	.	.	.	.	.	.
8r	.	.	16f#/ 16d/	.	.	.	.	.	.	.	.	.	.	.
.	.	.	16f#/JJ 16d/	.	.	.	.	.	.	.	.	.	.	.
8AA/	.	.	16r	.	4eeT\	.	.	.	.	.	.	.	.	.
.	.	.	16g/LL 16A/	.	.	.	.	.	.	.	.	.	.	.
8r	.	.	16g/ 16A/	.	.	.	.	.	.	.	.	.	.	.
.	.	.	16g/JJ 16A/	.	.	.	.	.	.	.	.	.	.	.
!	!	!	!	!	!LO:LB:g=original	!	!	!	!	!	!	!	!	!
=59	=59	=59	=59	=59	=59	=59	=59	=59	=59	=59	=59	=59	=59	=59
!	!	!	!	!LO:DY:rj	!	!	!	!	!	!	!	!	!	!
8D\L	.	.	8f#/L 8A/	f	8dd\L	.	.	.	.	.	2.ryy	2.ryy	2.ryy	2.ryy
16A\L	.	.	16a/L	.	16a\L	.	.	.	.	.	.	.	.	.
16F#\JJ	.	.	16f#/JJ	.	16f#\JJ	.	.	.	.	.	.	.	.	.
8D\L	.	.	8d/L	.	8d/L	.	.	.	.	.	.	.	.	.
8D\J	.	.	8d/J	.	8d/J	.	.	.	.	.	.	.	.	.
4D\	.	.	4d/	.	8d/	.	.	.	.	.	.	.	.	.
.	.	.	.	.	8r	.	.	.	.	.	.	.	.	.
=60	=60	=60	=60	=60	=60	=60	=60	=60	=60	=60	=60	=60	=60	=60
!	!	!	!	!LO:DY:rj	!LO:TX:a:t=1	!	!	!	!	!	!	!	!	!
8D/	.	.	16d/LL	p	2.r	.	2E\	Sa-	2A\	Sa-	2.ryy	2.ryy	2.ryy	2.ryy
.	.	.	16f#/	.	.	.	.	.	.	.	.	.	.	.
8r	.	.	16a/	.	.	.	.	.	.	.	.	.	.	.
.	.	.	16f#/JJ	.	.	.	.	.	.	.	.	.	.	.
*	*	*	*rep	*	*	*	*	*	*	*	*	*	*	*
8D/	.	.	16d/LL	.	.	.	.	.	.	.	.	.	.	.
.	.	.	16f#/	.	.	.	.	.	.	.	.	.	.	.
8r	.	.	16a/	.	.	.	.	.	.	.	.	.	.	.
.	.	.	16f#/JJ	.	.	.	.	.	.	.	.	.	.	.
*	*	*	*Xrep	*	*	*	*	*	*	*	*	*	*	*
8D/	.	.	16d/LL	.	.	.	4G\	-lus	4B\	-lus	.	.	.	.
.	.	.	16g/	.	.	.	.	.	.	.	.	.	.	.
8r	.	.	16b/	.	.	.	.	.	.	.	.	.	.	.
.	.	.	16g/JJ	.	.	.	.	.	.	.	.	.	.	.
=61	=61	=61	=61	=61	=61	=61	=61	=61	=61	=61	=61	=61	=61	=61
*	*	*	*	*	*	*	*	*ij	*	*ij	*	*	*	*
8D\	6 4	.	16d/LL	.	4r	.	4.G\	Sa-	8.B\L	Sa-	2.ryy	2.ryy	2.ryy	2.ryy
.	.	.	16f#/	.	.	.	.	.	.	.	.	.	.	.
8r	.	.	16a/	.	.	.	.	.	.	.	.	.	.	.
.	.	.	16cc#X/JJ	.	.	.	.	.	16A\Jk	.	.	.	.	.
8DD/	5 3	.	4dd\	.	16r	.	.	.	4A\	-lus	.	.	.	.
.	.	.	.	.	16ddd\LL	.	.	.	.	.	.	.	.	.
8r	.	.	.	.	16ccc#X\	.	8F#\	.	.	.	.	.	.	.
.	.	.	.	.	16eee\JJ	.	.	.	.	.	.	.	.	.
4r	.	.	4r	.	16ddd\LL	.	4F#\	-lus	4r	.	.	.	.	.
*	*	*	*	*	*	*	*	*Xij	*	*Xij	*	*	*	*
.	.	.	.	.	16ccc#\	.	.	.	.	.	.	.	.	.
.	.	.	.	.	16bb\	.	.	.	.	.	.	.	.	.
.	.	.	.	.	16aa\JJ	.	.	.	.	.	.	.	.	.
=62	=62	=62	=62	=62	=62	=62	=62	=62	=62	=62	=62	=62	=62	=62
8r	.	.	16A/LL	.	4aa\	.	8r	.	2A/	in	2.ryy	2.ryy	2.ryy	2.ryy
.	.	.	16e/	.	.	.	.	.	.	.	.	.	.	.
8AA/L	8	.	16g/	.	.	.	8AA/L	In	.	.	.	.	.	.
.	.	.	16e/JJ	.	.	.	.	.	.	.	.	.	.	.
*	*	*	*rep	*	*	*	*	*	*	*	*	*	*	*
8GG#X/	3_	.	16A/LL	.	4r	.	8BB/	.	.	.	.	.	.	.
.	.	.	16e/	.	.	.	.	.	.	.	.	.	.	.
8AA/	.	.	16g/	.	.	.	8C#X/J	.	.	.	.	.	.	.
.	.	.	16e/JJ	.	.	.	.	.	.	.	.	.	.	.
*	*	*	*Xrep	*	*	*	*	*	*	*	*	*	*	*
*	*	*	*rep	*	*	*	*	*	*	*	*	*	*	*
8BB/	.	.	16A/LL	.	4r	.	8D/L	fir-	8G#X/L	fir-	.	.	.	.
.	.	.	16e/	.	.	.	.	.	.	.	.	.	.	.
8C/J	.	.	16g/	.	.	.	8E/J	.	8Gn/J	.	.	.	.	.
.	x	.	16e/JJ	.	.	.	.	.	.	.	.	.	.	.
*	*	*	*Xrep	*	*	*	*	*	*	*	*	*	*	*
=63	=63	=63	=63	=63	=63	=63	=63	=63	=63	=63	=63	=63	=63	=63
4D\	.	.	16d/LL	.	4r	.	8E/L	-mo-	8G/L	-mo-	2.ryy	2.ryy	2.ryy	2.ryy
.	.	.	16f#/	.	.	.	.	.	.	.	.	.	.	.
.	.	.	16a/	.	.	.	8D/J	.	8F#/J	.	.	.	.	.
.	.	.	16f#/JJ	.	.	.	.	.	.	.	.	.	.	.
4DD/	.	.	4d/	.	32r	.	4D/	-rum	4F#/	-rum	.	.	.	.
.	.	.	.	.	32dd\LLL	.	.	.	.	.	.	.	.	.
.	.	.	.	.	32ee\	.	.	.	.	.	.	.	.	.
.	.	.	.	.	32ff#\JJJ	.	.	.	.	.	.	.	.	.
.	.	.	.	.	32gg\LLL	.	.	.	.	.	.	.	.	.
.	.	.	.	.	32aa\	.	.	.	.	.	.	.	.	.
.	.	.	.	.	32bb\	.	.	.	.	.	.	.	.	.
.	.	.	.	.	32ccc#X\JJJ	.	.	.	.	.	.	.	.	.
4r	.	.	4r	.	16ddd\LL	.	4r	.	4r	.	.	.	.	.
.	.	.	.	.	16ccc#\	.	.	.	.	.	.	.	.	.
.	.	.	.	.	16bb\	.	.	.	.	.	.	.	.	.
.	.	.	.	.	16aa\JJ	.	.	.	.	.	.	.	.	.
!	!	!	!LO:LB:g=original	!	!	!	!	!	!	!	!	!	!	!
=64	=64	=64	=64	=64	=64	=64	=64	=64	=64	=64	=64	=64	=64	=64
8r	.	.	16A/LL	.	4aa\	.	8r	.	2A/	O-	2.ryy	2.ryy	2.ryy	2.ryy
.	.	.	16e/	.	.	.	.	.	.	.	.	.	.	.
8AA/L	.	.	16g/	.	.	.	8AA/L	O-	.	.	.	.	.	.
.	.	.	16e/JJ	.	.	.	.	.	.	.	.	.	.	.
*	*	*	*rep	*	*	*	*	*	*	*	*	*	*	*
8GG#X/	.	.	16A/LL	.	4r	.	8BB/	.	.	.	.	.	.	.
.	.	.	16e/	.	.	.	.	.	.	.	.	.	.	.
8AA/	.	.	16g/	.	.	.	8C/J	.	.	.	.	.	.	.
.	.	.	16e/JJ	.	.	.	.	.	.	.	.	.	.	.
*	*	*	*Xrep	*	*	*	*	*	*	*	*	*	*	*
*	*	*	*rep	*	*	*	*	*	*	*	*	*	*	*
8BB/	.	.	16A/LL	.	4r	.	8D/	-ra	8G#X/	-ra	.	.	.	.
.	.	.	16e/	.	.	.	.	.	.	.	.	.	.	.
8C/J	.	.	16g/	.	.	.	8F#/	pro	8Gn/	pro	.	.	.	.
.	.	.	16e/JJ	.	.	.	.	.	.	.	.	.	.	.
*	*	*	*Xrep	*	*	*	*	*	*	*	*	*	*	*
!LO:LB:g=original	!	!	!	!	!LO:LB:g=original	!	!	!	!	!	!	!	!	!
=65	=65	=65	=65	=65	=65	=65	=65	=65	=65	=65	=65	=65	=65	=65
8D\	.	.	4f#/ 4d/	.	4r	.	4D\	no-	16G/LL	no-	2.ryy	2.ryy	2.ryy	2.ryy
.	.	.	.	.	.	.	.	.	16F#/	.	.	.	.	.
8r	.	.	.	.	.	.	.	.	16E/	.	.	.	.	.
.	.	.	.	.	.	.	.	.	16D/JJ	.	.	.	.	.
16r	.	.	16r	.	16r	.	4D\	-bis	4D/	-bis	.	.	.	.
16d\LL	.	.	16dd\LL	.	16dd/LL	f	.	.	.	.	.	.	.	.
16A\	.	.	16a\	.	16a/	.	.	.	.	.	.	.	.	.
16F#\JJ	.	.	16f#\JJ	.	16f#/JJ	.	.	.	.	.	.	.	.	.
4D\	.	.	8d/	.	8d/	.	4r	.	4r	.	.	.	.	.
.	.	.	8r	.	8r	.	.	.	.	.	.	.	.	.
!	!	!	!	!	!	!	!LO:LB:g=original	!	!LO:LB:g=original	!	!	!	!	!
=66	=66	=66	=66	=66	=66	=66	=66	=66	=66	=66	=66	=66	=66	=66
!	!	!	!	!	!LO:TX:a:t=P:problem=mixedbeam	!	!	!	!	!	!	!	!	!
8E\	7_ 5_	.	8r	.	8dd\L	.	1.r	.	8d\	Re-	2.ryy	2.ryy	2.ryy	2.ryy
8r	.	.	16B/LL	.	16d/L	.	.	.	8G#X/	-fu-	.	.	.	.
.	.	.	16B/JJ	.	16d/JJ	.	.	.	.	.	.	.	.	.
8E\	.	.	16cn/LL	.	16e/LL	.	.	.	8G#/	-gi-	.	.	.	.
.	.	.	16c/	.	16e/	.	.	.	.	.	.	.	.	.
8r	.	.	16d/	.	16f#/	.	.	.	8G#/	-um	.	.	.	.
.	.	.	16d/JJ	.	16fn/JJ	.	.	.	.	.	.	.	.	.
8E\	.	.	16c/LL	.	16f/LL	.	.	.	8G#/	pec-	.	.	.	.
.	.	.	16c/	.	16e/	.	.	.	.	.	.	.	.	.
8r	x	.	16B/	.	16e/	.	.	.	8G#/	-ca-	.	.	.	.
.	.	.	16B/JJ	.	16d/JJ	.	.	.	.	.	.	.	.	.
=67	=67	=67	=67	=67	=67	=67	=67	=67	=67	=67	=67	=67	=67	=67
8A\	3	.	8B/L	.	8d/L	.	.	.	8B\L	-to-	2.ryy	2.ryy	2.ryy	2.ryy
8r	.	.	8A/J	.	8cn/J	.	.	.	8A\J	.	.	.	.	.
8AA/	.	.	8A/	.	16r	.	.	.	4A\	-rum	.	.	.	.
.	.	.	.	.	16gg#X\LL	.	.	.	.	.	.	.	.	.
8r	.	.	8r	.	16aa\	.	.	.	.	.	.	.	.	.
.	.	.	.	.	16ee\JJ	.	.	.	.	.	.	.	.	.
4r	.	.	16b\LL	.	16dd\LL	.	.	.	4r	.	.	.	.	.
.	.	.	16a\	.	16ccn\	.	.	.	.	.	.	.	.	.
.	.	.	16g#X\	.	16b\	.	.	.	.	.	.	.	.	.
.	.	.	16a\JJ	.	16cc\JJ	.	.	.	.	.	.	.	.	.
=68	=68	=68	=68	=68	=68	=68	=68	=68	=68	=68	=68	=68	=68	=68
!	!	!	!	!	!LO:TX:a:t=P:problem=mixedbeam	!	!	!	!LO:TX:a:t=2	!	!	!	!	!
8D\	7_ 5_	.	8r	.	8ccn\L	.	8cn\	Con-	1.r	.	2.ryy	2.ryy	2.ryy	2.ryy
8r	.	.	16A/LL	.	16c/L	.	8F#\	-so-	.	.	.	.	.	.
.	.	.	16A/JJ	.	16c/JJ	.	.	.	.	.	.	.	.	.
8D\	.	.	16B/LL	.	16d/LL	.	8F#\	-la-	.	.	.	.	.	.
.	.	.	16B/	.	16d/	.	.	.	.	.	.	.	.	.
8r	.	.	16c/	.	16e/	.	8F#\	-trix	.	.	.	.	.	.
.	.	.	16c/JJ	.	16e/JJ	.	.	.	.	.	.	.	.	.
!	!	!	!LO:LB:g=original	!	!	!	!	!	!	!	!	!	!	!
8D\	.	.	16B/LL	.	16d/LL	.	8F#\	a-	.	.	.	.	.	.
.	.	.	16B/	.	16d/	.	.	.	.	.	.	.	.	.
8r	x	.	16A/	.	16c/	.	8F#\	-fli-	.	.	.	.	.	.
.	.	.	16A/JJ	.	16c/JJ	.	.	.	.	.	.	.	.	.
=69	=69	=69	=69	=69	=69	=69	=69	=69	=69	=69	=69	=69	=69	=69
8G\	3	.	8A/L	.	8c/L	.	8A\L	-cto-	.	.	2.ryy	2.ryy	2.ryy	2.ryy
8r	.	.	8G/J	.	8B/J	.	8G\J	.	.	.	.	.	.	.
8GG/	.	.	8G/	.	16r	.	4G\	-rum	.	.	.	.	.	.
.	.	.	.	.	16ff#\LL	.	.	.	.	.	.	.	.	.
8r	.	.	8r	.	16gg\	.	.	.	.	.	.	.	.	.
.	.	.	.	.	16dd\JJ	.	.	.	.	.	.	.	.	.
4r	.	.	16a\LL	.	16cc\LL	.	4r	.	.	.	.	.	.	.
.	.	.	16gn\	.	16b\	.	.	.	.	.	.	.	.	.
.	.	.	16f#\	.	16a\	.	.	.	.	.	.	.	.	.
.	.	.	16g\JJ	.	16b\JJ	.	.	.	.	.	.	.	.	.
!	!	!	!	!	!LO:LB:g=original	!	!	!	!	!	!	!	!	!
=70	=70	=70	=70	=70	=70	=70	=70	=70	=70	=70	=70	=70	=70	=70
!LO:TX:a:t=P:problem=mixedbeam	!	!	!	!	!	!	!	!	!	!	!	!	!	!
8GG/L	.	.	8g\	.	8b\	.	(4.B\	O-	(4.d\	O-	2.ryy	2.ryy	2.ryy	2.ryy
8G\	.	.	4dd\	.	4bb\	.	.	.	.	.	.	.	.	.
2G\J	.	.	.	.	.	.	.	.	.	.	.	.	.	.
.	.	.	8b\L	.	8gg\L	.	8G\)	.	8B\)	.	.	.	.	.
.	.	.	8cc\	.	8aa\	.	8A\	-ra	8c\	-ra	.	.	.	.
.	.	.	8dd\J	.	8bb\J	.	8B\	pro	8d\	pro	.	.	.	.
=71	=71	=71	=71	=71	=71	=71	=71	=71	=71	=71	=71	=71	=71	=71
!LO:TX:a:t=P:problem=mixedbeam	!	!	!	!	!	!	!	!	!	!	!	!	!	!
8GG/L	.	.	8ee\L	.	8ccc\L	.	8c\L	no-	8e\L	no-	2.ryy	2.ryy	2.ryy	2.ryy
8G\	.	.	8ff#\	.	8ddd\	.	8d\J	.	8f#\J	.	.	.	.	.
2G\J	.	.	8gg\	.	8eee\	.	8e\	-bis	8g\	-bis	.	.	.	.
.	.	.	8ff#\	.	8ddd\	.	8d\	o-	8f#\	o-	.	.	.	.
.	.	.	8ee\	.	8ccc\	.	8c\	-ra	8e\	-ra	.	.	.	.
.	.	.	8dd\J	.	8bb\J	.	8B\	pro	8d\	pro	.	.	.	.
!LO:LB:g=original	!	!	!	!	!	!	!LO:LB:g=original	!	!	!	!	!	!	!
=72	=72	=72	=72	=72	=72	=72	=72	=72	=72	=72	=72	=72	=72	=72
!LO:TX:a:t=P:problem=mixedbeam	!	!	!	!	!	!	!	!	!	!	!	!	!	!
8GG/L	.	.	8cc\L	.	8aa\L	.	8A\L	no-	8c\L	no-	2.ryy	2.ryy	2.ryy	2.ryy
8G\	.	.	8dd\	.	8bb\	.	8B\J	.	8d\J	.	.	.	.	.
!	!	!	!	!	!	!	!	!	!LO:LB:g=original	!	!	!	!	!
2G\J	.	.	8ee\	.	8ccc\	.	8c\	-bis	8e\	-bis	.	.	.	.
.	.	.	8dd\	.	8bb\	.	8B\	o-	8d\	o-	.	.	.	.
.	.	.	8cc\	.	8aa\	.	8A\	-ra	8c\	-ra	.	.	.	.
.	.	.	8b\J	.	8gg\J	.	8G\	pro	8B\	pro	.	.	.	.
=73	=73	=73	=73	=73	=73	=73	=73	=73	=73	=73	=73	=73	=73	=73
8DD/L	.	.	8a/L	.	8ff#\L	.	8F#\L	no-	8A\L	no-	2.ryy	2.ryy	2.ryy	2.ryy
8D/	.	.	8b/	.	8gg\	.	8G\J	.	8B\J	.	.	.	.	.
2D/J	.	.	8cc/	.	8aa\	.	8A\	-bis	8c\	-bis	.	.	.	.
.	.	.	8dd/	.	8bb\	.	8B\	o-	8d\	O-	.	.	.	.
.	.	.	8cc/	.	8aa\	.	8A\	-ra	8c\	-ra	.	.	.	.
.	.	.	8b/J	.	8gg\J	.	8G\	pro	8B\	pro	.	.	.	.
=74	=74	=74	=74	=74	=74	=74	=74	=74	=74	=74	=74	=74	=74	=74
4D\	.	.	16cc\LL	.	16aa\LL	.	16A\LL	no-	16c\LL	no-	2.ryy	2.ryy	2.ryy	2.ryy
.	.	.	16b\	.	16gg\	.	16G\	.	16B\	.	.	.	.	.
.	.	.	16a\	.	16ff#\	.	16F#\	.	16A\	.	.	.	.	.
.	.	.	16b\JJ	.	16gg\JJ	.	16G\JJ	.	16B\JJ	.	.	.	.	.
4DD/	.	.	8a\	.	16ff#\LL	.	4F#\	-bis	4A\	-bis	.	.	.	.
.	.	.	.	.	16dd\	.	.	.	.	.	.	.	.	.
.	.	.	8r	.	16cc#X\	.	.	.	.	.	.	.	.	.
.	.	.	.	.	16dd\JJ	.	.	.	.	.	.	.	.	.
4r	.	.	8a/L	.	16ff#\LL	.	4r	.	4r	.	.	.	.	.
.	.	.	.	.	16dd\	.	.	.	.	.	.	.	.	.
.	.	.	8b/J	.	16gg\	.	.	.	.	.	.	.	.	.
.	.	.	.	.	16dd\JJ	.	.	.	.	.	.	.	.	.
!	!	!	!LO:LB:g=original	!	!	!	!	!	!	!	!	!	!	!
=75	=75	=75	=75	=75	=75	=75	=75	=75	=75	=75	=75	=75	=75	=75
!LO:TX:a:t=1	!	!	!	!	!	!	!	!	!LO:TX:a:t=2	!	!	!	!	!
2.r	.	.	8f#/L	.	16aa\LL	.	1.r	.	1.r	.	2.ryy	2.ryy	2.ryy	2.ryy
.	.	.	.	.	16dd\	.	.	.	.	.	.	.	.	.
.	.	.	8g/	.	16bb\	.	.	.	.	.	.	.	.	.
.	.	.	.	.	16dd\JJ	.	.	.	.	.	.	.	.	.
.	.	.	8a/	.	16ccc\LL	.	.	.	.	.	.	.	.	.
.	.	.	.	.	16dd\	.	.	.	.	.	.	.	.	.
.	.	.	8b/	.	16ddd\	.	.	.	.	.	.	.	.	.
.	.	.	.	.	16dd\JJ	.	.	.	.	.	.	.	.	.
.	.	.	8a/	.	16ccc\LL	.	.	.	.	.	.	.	.	.
.	.	.	.	.	16dd\	.	.	.	.	.	.	.	.	.
.	.	.	8g/J	.	16bb\	.	.	.	.	.	.	.	.	.
.	.	.	.	.	16dd\JJ	.	.	.	.	.	.	.	.	.
!	!	!	!	!	!LO:LB:g=original	!	!	!	!	!	!	!	!	!
=76	=76	=76	=76	=76	=76	=76	=76	=76	=76	=76	=76	=76	=76	=76
4r	.	.	16a/LL	.	16ccc\LL	.	.	.	.	.	2.ryy	2.ryy	2.ryy	2.ryy
.	.	.	16g/	.	16bb\	.	.	.	.	.	.	.	.	.
.	.	.	16f#/	.	16aa\	.	.	.	.	.	.	.	.	.
.	.	.	16g/JJ	.	16bb\JJ	.	.	.	.	.	.	.	.	.
16r	.	.	16f#/LL	f	16aa\LL	.	.	.	.	.	.	.	.	.
16D\LL	.	.	16d/	.	16dd\	.	.	.	.	.	.	.	.	.
16F#\	.	.	16f#/	.	16ff#\	.	.	.	.	.	.	.	.	.
16A\JJ	.	.	16a/JJ	.	16aa\JJ	.	.	.	.	.	.	.	.	.
4d\	.	.	4dd\	.	4ddd\	.	.	.	.	.	.	.	.	.
=77	=77	=77	=77	=77	=77	=77	=77	=77	=77	=77	=77	=77	=77	=77
!	!	!	!	!LO:DY:rj	!LO:TX:a:t=1	!	!	!	!	!	!	!	!	!
8G\	.	p	16G/LL	p	2.r	.	2B\	au-	2d\	Au-	2.ryy	2.ryy	2.ryy	2.ryy
.	.	.	16B/	.	.	.	.	.	.	.	.	.	.	.
8r	.	.	16d/	.	.	.	.	.	.	.	.	.	.	.
.	.	.	16B/JJ	.	.	.	.	.	.	.	.	.	.	.
*	*	*	*rep	*	*	*	*	*	*	*	*	*	*	*
8G\	.	.	16G/LL	.	.	.	.	.	.	.	.	.	.	.
.	.	.	16B/	.	.	.	.	.	.	.	.	.	.	.
8r	.	.	16d/	.	.	.	.	.	.	.	.	.	.	.
.	.	.	16B/JJ	.	.	.	.	.	.	.	.	.	.	.
*	*	*	*Xrep	*	*	*	*	*	*	*	*	*	*	*
8G\	.	.	16G/LL	.	.	.	4c\	-xi-	4e\	-xi-	.	.	.	.
.	.	.	16c/	.	.	.	.	.	.	.	.	.	.	.
8r	.	.	16e/	.	.	.	.	.	.	.	.	.	.	.
.	.	.	16c/JJ	.	.	.	.	.	.	.	.	.	.	.
=78	=78	=78	=78	=78	=78	=78	=78	=78	=78	=78	=78	=78	=78	=78
8G\	.	.	16G/LL	.	4r	.	8.c\	.	8.e\	.	2.ryy	2.ryy	2.ryy	2.ryy
.	.	.	16c/	.	.	.	.	.	.	.	.	.	.	.
8r	.	.	16e/	.	.	.	.	.	.	.	.	.	.	.
.	.	.	16f#/JJ	.	.	.	16B\	-li-	16d\	-li-	.	.	.	.
8GG/	.	.	4g/	.	32r	.	4B\	-um	4d\	-um	.	.	.	.
.	.	.	.	.	32g/LLL	.	.	.	.	.	.	.	.	.
.	.	.	.	.	32a/	.	.	.	.	.	.	.	.	.
.	.	.	.	.	32b/JJJ	.	.	.	.	.	.	.	.	.
8r	.	.	.	.	32cc\LLL	.	.	.	.	.	.	.	.	.
.	.	.	.	.	32dd\	.	.	.	.	.	.	.	.	.
.	.	.	.	.	32ee\	.	.	.	.	.	.	.	.	.
.	.	.	.	.	32ff#\JJJ	.	.	.	.	.	.	.	.	.
4r	.	.	4r	.	32gg\LLL	.	4r	.	4r	.	.	.	.	.
.	.	.	.	.	32ff#\	.	.	.	.	.	.	.	.	.
.	.	.	.	.	32gg\	.	.	.	.	.	.	.	.	.
.	.	.	.	.	32aa\JJJ	.	.	.	.	.	.	.	.	.
.	.	.	.	.	32bb\LLL	.	.	.	.	.	.	.	.	.
.	.	.	.	.	32aa\	.	.	.	.	.	.	.	.	.
.	.	.	.	.	32bb\	.	.	.	.	.	.	.	.	.
.	.	.	.	.	32ccc\JJJ	.	.	.	.	.	.	.	.	.
!	!	!	!	!	!	!	!LO:LB:g=original	!	!LO:LB:g=original	!	!	!	!	!
=79	=79	=79	=79	=79	=79	=79	=79	=79	=79	=79	=79	=79	=79	=79
8r	.	.	8r	.	4ddd\	.	8r	.	2d\	Chri-	2.ryy	2.ryy	2.ryy	2.ryy
8D\L	.	.	8f#/L	.	.	.	8D\L	Chri-	.	.	.	.	.	.
8E\	.	.	8g/	.	4r	.	8E\	.	.	.	.	.	.	.
8D\	.	.	8f#/	.	.	.	8F#\J	.	.	.	.	.	.	.
8E\	.	.	8g/	.	4r	.	8G\	-sti	8c#X\	-sti	.	.	.	.
8F#\J	.	.	8a/J	.	.	.	8A\	a-	8cn\	a-	.	.	.	.
=80	=80	=80	=80	=80	=80	=80	=80	=80	=80	=80	=80	=80	=80	=80
4G\	.	.	8a/L	.	4r	.	8A\L	-no-	8c\L	-no-	2.ryy	2.ryy	2.ryy	2.ryy
.	.	.	8g/J	.	.	.	8G\J	.	8B\J	.	.	.	.	.
4GG/	.	.	4g/	.	32r	.	4G\	-rum	4B\	-rum	.	.	.	.
.	.	.	.	.	32g/LLL	.	.	.	.	.	.	.	.	.
.	.	.	.	.	32a/	.	.	.	.	.	.	.	.	.
.	.	.	.	.	32b/JJJ	.	.	.	.	.	.	.	.	.
.	.	.	.	.	32cc\LLL	.	.	.	.	.	.	.	.	.
.	.	.	.	.	32dd\	.	.	.	.	.	.	.	.	.
.	.	.	.	.	32ee\	.	.	.	.	.	.	.	.	.
.	.	.	.	.	32ff#\JJJ	.	.	.	.	.	.	.	.	.
4r	.	.	4r	.	32gg\LLL	.	4r	.	4r	.	.	.	.	.
.	.	.	.	.	32ff#\	.	.	.	.	.	.	.	.	.
.	.	.	.	.	32gg\	.	.	.	.	.	.	.	.	.
.	.	.	.	.	32aa\JJJ	.	.	.	.	.	.	.	.	.
.	.	.	.	.	32bb\LLL	.	.	.	.	.	.	.	.	.
.	.	.	.	.	32aa\	.	.	.	.	.	.	.	.	.
.	.	.	.	.	32bb\	.	.	.	.	.	.	.	.	.
.	.	.	.	.	32ccc\JJJ	.	.	.	.	.	.	.	.	.
!LO:LB:g=original	!	!	!LO:LB:g=original	!	!LO:LB:g=original	!	!	!	!	!	!	!	!	!
=81	=81	=81	=81	=81	=81	=81	=81	=81	=81	=81	=81	=81	=81	=81
8r	.	.	8r	.	4ddd\	.	8r	.	2d\	O-	2.ryy	2.ryy	2.ryy	2.ryy
8D\L	.	.	8f#/L	.	.	.	8D\L	O-	.	.	.	.	.	.
8E\	.	.	8g/	.	4r	.	8E\	.	.	.	.	.	.	.
8D\	.	.	8f#/	.	.	.	8F#\J	.	.	.	.	.	.	.
8E\	.	.	8g/	.	4r	.	8G\	-ra	8c#X\	-ra	.	.	.	.
8F#\J	.	.	8a/J	.	.	.	8A\	pro	8cn\	pro	.	.	.	.
=82	=82	=82	=82	=82	=82	=82	=82	=82	=82	=82	=82	=82	=82	=82
4G\	.	.	8b\L	.	8gg\L	.	8G\L	no-	8B\L	no-	2.ryy	2.ryy	2.ryy	2.ryy
.	.	.	8cc\	.	8aa\	.	8A\J	.	8c\J	.	.	.	.	.
4r	.	.	8dd\	.	8bb\	.	8B\	-bis	8d\	-bis	.	.	.	.
.	.	.	8ee\	.	8ccc\	.	8c\	o-	8e\	o-	.	.	.	.
4r	.	.	8ff#\	.	8ddd\	.	8d\	-ra	8f#\	-ra	.	.	.	.
.	.	.	8gg\J	.	8eee\J	.	8e\	pro	8g\	pro	.	.	.	.
=83	=83	=83	=83	=83	=83	=83	=83	=83	=83	=83	=83	=83	=83	=83
4r	.	.	8dd#X\L	.	8bb\L	.	8B\L	no-	8d#X\L	no-	2.ryy	2.ryy	2.ryy	2.ryy
.	.	.	8ee\J	.	8ccc\J	.	8c\J	.	8e\J	.	.	.	.	.
*	*	*	*2\right	*	*	*	*	*	*	*	*	*	*	*
2C;</	.	.	2ee;\	.	2ccc;\	.	2c;\	-bis	2e;\	-bis	.	.	.	.
!	!	!	!	!	!	!	!LO:PB:g=original	!	!LO:LB:g=original	!	!	!	!	!
=84	=84	=84	=84	=84	=84	=84	=84	=84	=84	=84	=84	=84	=84	=84
4r	.	.	8ee\L	.	8ccc\L	.	8c\L	O-	8e\L	O-	2.ryy	2.ryy	2.ryy	2.ryy
.	.	.	8cc#X\	.	8aa#X\	.	8A#X\J	.	8c#X\J	.	.	.	.	.
4r	.	.	8dd\	.	8bb\	.	8B\L	-ra	8d\L	-ra	.	.	.	.
.	.	.	8b\	.	8gg\	.	8G#X\J	.	8B\J	.	.	.	.	.
!LO:TX:a:t=P:problem=mixedbeam	!	!	!	!	!	!	!	!	!	!	!	!	!	!
8D\L	.	.	8ccn\	.	8aa#\	.	8A#\L	pro	8cn\L	pro	.	.	.	.
8DD/J	.	.	8a\J	.	8ff#\J	.	8F#\J	.	8A\J	.	.	.	.	.
=85	=85	=85	=85	=85	=85	=85	=85	=85	=85	=85	=85	=85	=85	=85
4GG/	.	.	8a\L	.	8ff#\L	.	8F#\L	no-	8A\L	no-	2.ryy	2.ryy	2.ryy	2.ryy
.	.	.	8b\J	.	8gg\J	.	8G\J	.	8B\J	.	.	.	.	.
!	!	!	!	!	!LO:TX:a:t=P:problem=mixedbeam	!	!	!	!	!	!	!	!	!
4G\	.	.	4b\	.	16gg\LL	.	8G\	-bis	8B\	-bis	.	.	.	.
.	.	.	.	.	16g/	.	.	.	.	.	.	.	.	.
.	.	.	.	.	16a/	.	8r	.	8r	.	.	.	.	.
.	.	.	.	.	16b/JJ	.	.	.	.	.	.	.	.	.
4r	.	.	4r	.	16cc\LL	.	4r	.	4r	.	.	.	.	.
.	.	.	.	.	16dd\	.	.	.	.	.	.	.	.	.
.	.	.	.	.	16ee\	.	.	.	.	.	.	.	.	.
.	.	.	.	.	16ff#\JJ	.	.	.	.	.	.	.	.	.
=86	=86	=86	=86	=86	=86	=86	=86	=86	=86	=86	=86	=86	=86	=86
4GG/	.	.	8b\L	.	8gg\L	.	8G\L	O-	8B\L	O-	2.ryy	2.ryy	2.ryy	2.ryy
.	.	.	8cc\	.	8aa\	.	8A\J	.	8c\J	.	.	.	.	.
4r	.	.	8dd\	.	8bb\	.	8B\L	-ra	8d\L	-ra	.	.	.	.
.	.	.	8ee\	.	8ccc\	.	8c\J	.	8e\J	.	.	.	.	.
4r	.	.	8ff#\	.	8ddd\	.	8d\L	pro	8f#\L	pro	.	.	.	.
.	.	.	8gg\J	.	8eee\J	.	8e\J	.	8g\J	.	.	.	.	.
=87	=87	=87	=87	=87	=87	=87	=87	=87	=87	=87	=87	=87	=87	=87
4r	.	.	8dd#X\L	.	8bb\L	.	8B\L	no-	8d#X\L	no-	2.ryy	2.ryy	2.ryy	2.ryy
.	.	.	8ee\J	.	8ccc\J	.	8c\J	.	8e\J	.	.	.	.	.
2C;</	.	.	2ee;\	.	2ccc;\	.	2c;\	-bis	2e;\	-bis	.	.	.	.
=88	=88	=88	=88	=88	=88	=88	=88	=88	=88	=88	=88	=88	=88	=88
!LO:TX:a:t=2	!	!	!LO:TX:a:t=2	!	!LO:TX:a:t=2	!	!	!	!	!	!	!	!	!
1.r	.	.	1.r	.	1.r	.	8c\L	O-	8e\L	O-	2.ryy	2.ryy	2.ryy	2.ryy
.	.	.	.	.	.	.	8B\J	.	8d\J	.	.	.	.	.
.	.	.	.	.	.	.	8A\	-ra	8c#X\	-ra	.	.	.	.
.	.	.	.	.	.	.	8B\	pro	8d\	pro	.	.	.	.
!	!	!	!	!	!	!	!LO:LB:g=original	!	!	!	!	!	!	!
.	.	.	.	.	.	.	8A\	no-	8c#\	no-	.	.	.	.
.	.	.	.	.	.	.	8B\	-bis	8d\	-bis	.	.	.	.
!	!	!	!	!	!	!	!	!	!LO:PB:g=original	!	!	!	!	!
=89	=89	=89	=89	=89	=89	=89	=89	=89	=89	=89	=89	=89	=89	=89
.	.	.	.	.	.	.	8e\L	O-	8c\L	O-	2.ryy	2.ryy	2.ryy	2.ryy
.	.	.	.	.	.	.	8d\J	.	8B\J	.	.	.	.	.
.	.	.	.	.	.	.	8c#X\	-ra	8A#X\	-ra	.	.	.	.
.	.	.	.	.	.	.	8d\	pro	8B\	pro	.	.	.	.
.	.	.	.	.	.	.	8c#\	no-	8A#\	no-	.	.	.	.
.	.	.	.	.	.	.	8d\	-bis	8B\	-bis	.	.	.	.
!	!	!	!LO:LB:g=original	!	!LO:PB:g=original	!	!	!	!	!	!	!	!	!
=90	=90	=90	=90	=90	=90	=90	=90	=90	=90	=90	=90	=90	=90	=90
4r	.	.	4r	.	4r	.	8B\L	pro	8G/L	pro	2.ryy	2.ryy	2.ryy	2.ryy
.	.	.	.	.	.	.	8c\J	.	8A/J	.	.	.	.	.
4D\	.	.	2cc/ 2d/	.	2ff#/ 2a/ 2d/	.	2cT\	no-	2AT/	no-	.	.	.	.
4DD/	.	.	.	.	.	.	.	.	.	.	.	.	.	.
=91	=91	=91	=91	=91	=91	=91	=91	=91	=91	=91	=91	=91	=91	=91
!	!	!	!	!LO:DY:rj	!	!	!	!	!	!	!	!	!	!
8GG/	.	.	16G/LL	p	4dd\	.	4B\	-bis	4G/	-bis	2.ryy	2.ryy	2.ryy	2.ryy
.	.	.	16B/	.	.	.	.	.	.	.	.	.	.	.
8r	.	.	16d/	.	.	.	.	.	.	.	.	.	.	.
.	.	.	16B/JJ	.	.	.	.	.	.	.	.	.	.	.
*	*	*	*rep	*	*	*	*	*	*	*	*	*	*	*
8G\	.	.	16G/LL	.	32cc#X\LLL	.	4r	.	4r	.	.	.	.	.
.	.	.	.	.	32dd\	.	.	.	.	.	.	.	.	.
.	.	.	16B/	.	32ee\	.	.	.	.	.	.	.	.	.
.	.	.	.	.	32dd\JJJ	.	.	.	.	.	.	.	.	.
8r	.	.	16d/	.	32ccn\LLL	.	.	.	.	.	.	.	.	.
.	.	.	.	.	32b\	.	.	.	.	.	.	.	.	.
.	.	.	16B/JJ	.	32a\	.	.	.	.	.	.	.	.	.
.	.	.	.	.	32g\JJJ	.	.	.	.	.	.	.	.	.
*	*	*	*Xrep	*	*	*	*	*	*	*	*	*	*	*
8G\	.	.	16A/LL	.	16f#/LL	.	4r	.	4r	.	.	.	.	.
.	.	.	16B/	.	16g/	.	.	.	.	.	.	.	.	.
8r	.	.	16A/	.	16f#/	.	.	.	.	.	.	.	.	.
.	.	.	16B/JJ	.	16g/JJ	.	.	.	.	.	.	.	.	.
!LO:LB:g=original	!	!	!	!	!	!	!	!	!	!	!	!	!	!
=92	=92	=92	=92	=92	=92	=92	=92	=92	=92	=92	=92	=92	=92	=92
!	!	!	!	!	!	!	!	!	!LO:TX:a:t=14	!	!	!	!	!
8G\	.	.	16G/LL	.	32e/LLL	.	0.r	.	0.r	.	2.ryy	2.ryy	2.ryy	2.ryy
.	.	.	.	.	32g/	.	.	.	.	.	.	.	.	.
.	.	.	16c/	.	32cc/	.	.	.	.	.	.	.	.	.
.	.	.	.	.	32ee/JJJ	.	.	.	.	.	.	.	.	.
.	.	.	.	.	16qqaa/	.	.	.	.	.	.	.	.	.
8r	.	.	16e/	.	32gg\LLL	.	.	.	.	.	.	.	.	.
.	.	.	.	.	32ff#\	.	.	.	.	.	.	.	.	.
.	.	.	16c/JJ	.	32gg\	.	.	.	.	.	.	.	.	.
.	.	.	.	.	32ee\JJJ	.	.	.	.	.	.	.	.	.
8G\	.	.	16G/LL	.	8dd\	.	.	.	.	.	.	.	.	.
.	.	.	16B/	.	.	.	.	.	.	.	.	.	.	.
8r	.	.	16d/	.	8r	.	.	.	.	.	.	.	.	.
.	.	.	16B/JJ	.	.	.	.	.	.	.	.	.	.	.
*	*	*	*rep	*	*	*	*	*	*	*	*	*	*	*
8G\	.	.	16G/LL	.	32dd\LLL	.	.	.	.	.	.	.	.	.
.	.	.	.	.	32ee\	.	.	.	.	.	.	.	.	.
.	.	.	16B/	.	32ff#\	.	.	.	.	.	.	.	.	.
.	.	.	.	.	32gg\JJJ	.	.	.	.	.	.	.	.	.
8r	.	.	16d/	.	32aa\LLL	.	.	.	.	.	.	.	.	.
.	.	.	.	.	32bb\	.	.	.	.	.	.	.	.	.
.	.	.	16B/JJ	.	32ccc\	.	.	.	.	.	.	.	.	.
.	.	.	.	.	32ddd\JJJ	.	.	.	.	.	.	.	.	.
*	*	*	*Xrep	*	*	*	*	*	*	*	*	*	*	*
=93	=93	=93	=93	=93	=93	=93	=93	=93	=93	=93	=93	=93	=93	=93
8D\	.	.	16A/LL	.	8.ccc\L	.	.	.	.	.	2.ryy	2.ryy	2.ryy	2.ryy
.	.	.	16c/	.	.	.	.	.	.	.	.	.	.	.
8r	.	.	16d/	.	.	.	.	.	.	.	.	.	.	.
.	.	.	16c/JJ	.	16bb\Jk	.	.	.	.	.	.	.	.	.
*	*	*	*rep	*	*	*	*	*	*	*	*	*	*	*
8F#\	.	.	16A/LL	.	32aa\LLL	.	.	.	.	.	.	.	.	.
.	.	.	.	.	32bb\	.	.	.	.	.	.	.	.	.
.	.	.	16c/	.	32aa\	.	.	.	.	.	.	.	.	.
.	.	.	.	.	32gg\JJJ	.	.	.	.	.	.	.	.	.
8r	.	.	16d/	.	32ff#\LLL	.	.	.	.	.	.	.	.	.
.	.	.	.	.	32gg\	.	.	.	.	.	.	.	.	.
.	.	.	16c/JJ	.	32ff#\	.	.	.	.	.	.	.	.	.
.	.	.	.	.	32ee\JJJ	.	.	.	.	.	.	.	.	.
*	*	*	*Xrep	*	*	*	*	*	*	*	*	*	*	*
8D\	.	.	16A/LL	.	16dd\LL	.	.	.	.	.	.	.	.	.
.	.	.	16c/	.	16cc\	.	.	.	.	.	.	.	.	.
8r	.	.	16d/	.	16b\	.	.	.	.	.	.	.	.	.
.	.	.	16f#/JJ	.	16cc\JJ	.	.	.	.	.	.	.	.	.
=94	=94	=94	=94	=94	=94	=94	=94	=94	=94	=94	=94	=94	=94	=94
8G\	.	.	16a/LL	.	16cc\LL	.	.	.	.	.	2.ryy	2.ryy	2.ryy	2.ryy
.	.	.	16g/	.	16b\	.	.	.	.	.	.	.	.	.
8r	.	.	16cc/	.	16ee\	.	.	.	.	.	.	.	.	.
.	.	.	16b/JJ	.	16dd\JJ	.	.	.	.	.	.	.	.	.
8GG/	.	.	16b/LL	.	8dd\	.	.	.	.	.	.	.	.	.
.	.	.	16g/	.	.	.	.	.	.	.	.	.	.	.
8r	.	.	16d/	.	8r	.	.	.	.	.	.	.	.	.
.	.	.	16B/JJ	.	.	.	.	.	.	.	.	.	.	.
!	!	!	!	!	!LO:LB:g=original	!	!	!	!	!	!	!	!	!
8G\	.	.	8G/	.	32dd\LLL	.	.	.	.	.	.	.	.	.
.	.	.	.	.	32ee\	.	.	.	.	.	.	.	.	.
.	.	.	.	.	32ff#\	.	.	.	.	.	.	.	.	.
.	.	.	.	.	32gg\JJJ	.	.	.	.	.	.	.	.	.
8r	.	.	8r	.	32aa\LLL	.	.	.	.	.	.	.	.	.
.	.	.	.	.	32bb\	.	.	.	.	.	.	.	.	.
.	.	.	.	.	32ccc\	.	.	.	.	.	.	.	.	.
.	.	.	.	.	32ddd\JJJ	.	.	.	.	.	.	.	.	.
=95	=95	=95	=95	=95	=95	=95	=95	=95	=95	=95	=95	=95	=95	=95
8D\	.	.	16A/LL	.	24ccc\LL	.	.	.	.	.	2.ryy	2.ryy	2.ryy	2.ryy
.	.	.	.	.	24ddd\	.	.	.	.	.	.	.	.	.
.	.	.	16c/	.	.	.	.	.	.	.	.	.	.	.
.	.	.	.	.	24bb\JJ	.	.	.	.	.	.	.	.	.
8r	.	.	16d/	.	24aa\LL	.	.	.	.	.	.	.	.	.
.	.	.	.	.	24bb\	.	.	.	.	.	.	.	.	.
.	.	.	16c/JJ	.	.	.	.	.	.	.	.	.	.	.
.	.	.	.	.	24gg\JJ	.	.	.	.	.	.	.	.	.
!	!	!	!LO:LB:g=original	!	!	!	!	!	!	!	!	!	!	!
8F#\	.	.	16A/LL	.	24ff#\LL	.	.	.	.	.	.	.	.	.
.	.	.	.	.	24gg\	.	.	.	.	.	.	.	.	.
.	.	.	16c/	.	.	.	.	.	.	.	.	.	.	.
.	.	.	.	.	24ee\JJ	.	.	.	.	.	.	.	.	.
8r	.	.	16d/	.	24dd\LL	.	.	.	.	.	.	.	.	.
.	.	.	.	.	24ee\	.	.	.	.	.	.	.	.	.
.	.	.	16c/JJ	.	.	.	.	.	.	.	.	.	.	.
.	.	.	.	.	24cc\JJ	.	.	.	.	.	.	.	.	.
8G\L	.	.	16G/LL	.	16b\LL	.	.	.	.	.	.	.	.	.
.	.	.	16B/	.	16dd\	.	.	.	.	.	.	.	.	.
8C#X\J	.	.	16B/	.	16gg\	.	.	.	.	.	.	.	.	.
.	.	.	16g/JJ	.	16b\JJ	.	.	.	.	.	.	.	.	.
=96	=96	=96	=96	=96	=96	=96	=96	=96	=96	=96	=96	=96	=96	=96
8D/	.	.	16.g/LL	.	16.b\LL	.	0.r	.	0.r	.	2.ryy	2.ryy	2.ryy	2.ryy
.	.	.	32g/K	.	32b\K	.	.	.	.	.	.	.	.	.
8r	.	.	16.b/	.	16.dd\	.	.	.	.	.	.	.	.	.
.	.	.	32g/JJk	.	32b\JJk	.	.	.	.	.	.	.	.	.
16r	.	.	4f#/	.	4a\	.	.	.	.	.	.	.	.	.
16D/LL	.	.	.	.	.	.	.	.	.	.	.	.	.	.
16AA/	.	.	.	.	.	.	.	.	.	.	.	.	.	.
16FF#/JJ	.	.	.	.	.	.	.	.	.	.	.	.	.	.
8DD/	.	.	4r	.	4r	.	.	.	.	.	.	.	.	.
8r	.	.	.	.	.	.	.	.	.	.	.	.	.	.
=97	=97	=97	=97	=97	=97!|:	=97	=97	=97	=97	=97	=97	=97	=97	=97
8F#\	3_	.	16A/LL	.	16r	.	.	.	.	.	2.ryy	2.ryy	2.ryy	2.ryy
.	.	.	16c/	.	16dd\LL	.	.	.	.	.	.	.	.	.
8r	.	.	16f#/	.	16ee\	.	.	.	.	.	.	.	.	.
.	.	.	16a/JJ	.	16dd\JJ	.	.	.	.	.	.	.	.	.
8G\	.	.	16B/LL	.	16r	.	.	.	.	.	.	.	.	.
.	.	.	16d/	.	16dd\LL	.	.	.	.	.	.	.	.	.
8r	.	.	16f#/	.	16ee\	.	.	.	.	.	.	.	.	.
.	.	.	16b/JJ	.	16dd\JJ	.	.	.	.	.	.	.	.	.
8A\	.	.	16d/LL	.	16ff#\LL	.	.	.	.	.	.	.	.	.
.	.	.	16f#/	.	16aa\	.	.	.	.	.	.	.	.	.
8r	x	.	16a/	.	16ccc\	.	.	.	.	.	.	.	.	.
.	.	.	16cc/JJ	.	16eee\JJ	.	.	.	.	.	.	.	.	.
!LO:LB:g=original	!	!	!	!	!	!	!	!	!	!	!	!	!	!
=98	=98	=98	=98	=98	=98	=98	=98	=98	=98	=98	=98	=98	=98	=98
8B\	.	.	16d/LL	.	16eee\LL	.	.	.	.	.	2.ryy	2.ryy	2.ryy	2.ryy
.	.	.	16b/	.	16ddd\JJ	.	.	.	.	.	.	.	.	.
8r	.	.	16g/	.	4ddd\	.	.	.	.	.	.	.	.	.
.	.	.	16b/JJ	.	.	.	.	.	.	.	.	.	.	.
*	*	*	*rep	*	*	*	*	*	*	*	*	*	*	*
8r	.	.	16d/LL	.	.	.	.	.	.	.	.	.	.	.
.	.	.	16b/	.	.	.	.	.	.	.	.	.	.	.
!LO:TX:a:t=P:problem=mixedbeam	!	!	!	!	!	!	!	!	!	!	!	!	!	!
8G\L	.	.	16g/	.	16bb\LL	.	.	.	.	.	.	.	.	.
.	.	.	16b/JJ	.	16ddd\JJ	.	.	.	.	.	.	.	.	.
*	*	*	*Xrep	*	*	*	*	*	*	*	*	*	*	*
8D/	.	.	16d/LL	.	16ccc\LL	.	.	.	.	.	.	.	.	.
.	.	.	16f#/	.	16bb\	.	.	.	.	.	.	.	.	.
8DD/J	.	.	16a/	.	16ccc\	.	.	.	.	.	.	.	.	.
.	.	.	16f#/JJ	.	16aa\JJ	.	.	.	.	.	.	.	.	.
!	!	!	!	!	!LO:LB:g=original	!	!	!	!	!	!	!	!	!
=99	=99	=99	=99	=99	=99:|!	=99	=99	=99	=99	=99	=99	=99	=99	=99
8F#\	3_	.	16A/LL	.	16ryy	.	.	.	.	.	2.ryy	2.ryy	2.ryy	2.ryy
.	.	.	16c/	.	16dd\LLyy	.	.	.	.	.	.	.	.	.
8r	.	.	16f#/	.	16ee\yy	.	.	.	.	.	.	.	.	.
.	.	.	16a/JJ	.	16dd\JJyy	.	.	.	.	.	.	.	.	.
8G\	.	.	16B/LL	.	16ryy	.	.	.	.	.	.	.	.	.
.	.	.	16d/	.	16dd\LLyy	.	.	.	.	.	.	.	.	.
8r	.	.	16f#/	.	16ee\yy	.	.	.	.	.	.	.	.	.
.	.	.	16b/JJ	.	16dd\JJyy	.	.	.	.	.	.	.	.	.
8A\	.	.	16d/LL	.	16ff#\LLyy	.	.	.	.	.	.	.	.	.
.	.	.	16f#/	.	16aa\yy	.	.	.	.	.	.	.	.	.
8r	x	.	16a/	.	16ccc\yy	.	.	.	.	.	.	.	.	.
.	.	.	16cc/JJ	.	16eee\JJyy	.	.	.	.	.	.	.	.	.
!	!	!	!LO:LB:g=original	!	!	!	!	!	!	!	!	!	!	!
=100	=100	=100	=100	=100	=100	=100	=100	=100	=100	=100	=100	=100	=100	=100
8B\	.	.	16d/LL	.	16eee\LLyy	.	0.r	.	0.r	.	2.ryy	2.ryy	2.ryy	2.ryy
.	.	.	16b/	.	16ddd\JJyy	.	.	.	.	.	.	.	.	.
8r	.	.	16g/	.	4ddd\yy	.	.	.	.	.	.	.	.	.
.	.	.	16b/JJ	.	.	.	.	.	.	.	.	.	.	.
*	*	*	*rep	*	*	*	*	*	*	*	*	*	*	*
8r	.	.	16d/LL	.	.	.	.	.	.	.	.	.	.	.
.	.	.	16b/	.	.	.	.	.	.	.	.	.	.	.
!LO:TX:a:t=P:problem=mixedbeam	!	!	!	!	!	!	!	!	!	!	!	!	!	!
8G\L	.	.	16g/	.	16bb\LLyy	.	.	.	.	.	.	.	.	.
.	.	.	16b/JJ	.	16ddd\JJyy	.	.	.	.	.	.	.	.	.
*	*	*	*Xrep	*	*	*	*	*	*	*	*	*	*	*
8D\	.	.	16d/LL	.	16ccc\LLyy	.	.	.	.	.	.	.	.	.
.	.	.	16f#/	.	16bb\yy	.	.	.	.	.	.	.	.	.
8DD/J	.	.	16a/	.	16ccc\yy	.	.	.	.	.	.	.	.	.
.	.	.	16f#/JJ	.	16aa\JJyy	.	.	.	.	.	.	.	.	.
=101	=101	=101	=101	=101	=101	=101	=101	=101	=101	=101	=101	=101	=101	=101
16.G\LL	.	f	16.g/LL	f	16.gg\LL	.	.	.	.	.	2.ryy	2.ryy	2.ryy	2.ryy
32G\K	.	.	32g/K	.	32gg\K	.	.	.	.	.	.	.	.	.
16.B\	.	.	16.b/	.	16.bb\	.	.	.	.	.	.	.	.	.
32D#X\JJk	.	.	32d#X/JJk	.	32dd#X\JJk	.	.	.	.	.	.	.	.	.
16.E\LL	.	.	16.e/LL	.	16.ee\LL	.	.	.	.	.	.	.	.	.
32E\K	.	.	32e/K	.	32ee\K	.	.	.	.	.	.	.	.	.
16.G\	.	.	16.g/	.	16.gg\	.	.	.	.	.	.	.	.	.
32BB\JJk	.	.	32B/JJk	.	32b\JJk	.	.	.	.	.	.	.	.	.
16.C\LL	.	.	16.c/LL	.	16.cc\LL	.	.	.	.	.	.	.	.	.
32C\K	.	.	32c/K	.	32cc\K	.	.	.	.	.	.	.	.	.
16.E\	.	.	16.e/	.	16.ee\	.	.	.	.	.	.	.	.	.
32C#X\JJk	.	.	32c#X/JJk	.	32cc#X\JJk	.	.	.	.	.	.	.	.	.
=102	=102	=102	=102	=102	=102	=102	=102	=102	=102	=102	=102	=102	=102	=102
!	!	!	!LO:TX:a:t=P:problem=mixedbeam	!LO:DY:rj	!	!	!	!	!	!	!	!	!	!
8D\	.	p	16d/LL	p	16dd\LL	.	.	.	.	.	2.ryy	2.ryy	2.ryy	2.ryy
.	.	.	16b/	.	16gg\	.	.	.	.	.	.	.	.	.
8r	.	.	16gg\	.	16bb\	.	.	.	.	.	.	.	.	.
.	.	.	16bb\JJ	.	16ddd\JJ	.	.	.	.	.	.	.	.	.
8D\	.	.	4bb\	.	4ddd\	.	.	.	.	.	.	.	.	.
8r	.	.	.	.	.	.	.	.	.	.	.	.	.	.
8D\	.	.	16bb\LL	.	16ddd\LL	.	.	.	.	.	.	.	.	.
.	.	.	16aa\	.	16ccc\	.	.	.	.	.	.	.	.	.
8r	.	.	16gg\	.	16bb\	.	.	.	.	.	.	.	.	.
.	.	.	16aa\JJ	.	16ccc\JJ	.	.	.	.	.	.	.	.	.
!LO:LB:g=original	!	!	!	!	!	!	!	!	!	!	!	!	!	!
=103	=103	=103	=103	=103	=103	=103	=103	=103	=103	=103	=103	=103	=103	=103
!	!	!	!LO:TX:a:t=P:problem=mixedbeam	!	!	!	!	!	!	!	!	!	!	!
16.G\LL	.	f	16.gg\LL	f	16.bb\LL	.	.	.	.	.	2.ryy	2.ryy	2.ryy	2.ryy
32G\K	.	.	32g/K	.	32gg\K	.	.	.	.	.	.	.	.	.
16.B\	.	.	16.b/	.	16.bb\	.	.	.	.	.	.	.	.	.
32D#X\JJk	.	.	32d#X\JJk	.	32dd#X\JJk	.	.	.	.	.	.	.	.	.
16.E\LL	.	.	16.e/LL	.	16.ee\LL	.	.	.	.	.	.	.	.	.
32E\K	.	.	32e/K	.	32ee\K	.	.	.	.	.	.	.	.	.
16.G\	.	.	16.g/	.	16.gg\	.	.	.	.	.	.	.	.	.
32BB\JJk	.	.	32B/JJk	.	32b\JJk	.	.	.	.	.	.	.	.	.
16.C\LL	.	.	16.c/LL	.	16.cc\LL	.	.	.	.	.	.	.	.	.
32C\K	.	.	32c/K	.	32cc\K	.	.	.	.	.	.	.	.	.
16.E\	.	.	16.e/	.	16.ee\	.	.	.	.	.	.	.	.	.
32C#X\JJk	.	.	32c#X/JJk	.	32cc#X\JJk	.	.	.	.	.	.	.	.	.
!	!	!	!LO:LB:g=original	!	!	!	!	!	!	!	!	!	!	!
=104	=104	=104	=104	=104	=104	=104	=104	=104	=104	=104	=104	=104	=104	=104
8D\	.	p	16d/LL	.	16dd\LL	.	1.r	.	1.r	.	2.ryy	2.ryy	2.ryy	2.ryy
.	.	.	16g/	p	16b\	.	.	.	.	.	.	.	.	.
8r	.	.	16g/	.	16b\	.	.	.	.	.	.	.	.	.
.	.	.	16b/JJ	.	16dd\JJ	.	.	.	.	.	.	.	.	.
8D\	.	.	4b/	.	4dd\	.	.	.	.	.	.	.	.	.
8r	.	.	.	.	.	.	.	.	.	.	.	.	.	.
8D\	.	.	16b/LL	.	16dd\LL	.	.	.	.	.	.	.	.	.
.	.	.	16a/	.	16cc\	.	.	.	.	.	.	.	.	.
8r	.	.	16cn/	.	16a\	.	.	.	.	.	.	.	.	.
.	.	.	16A/JJ	.	16f#\JJ	.	.	.	.	.	.	.	.	.
=105	=105	=105	=105	=105	=105	=105	=105	=105	=105	=105	=105	=105	=105	=105
!	!	!	!	!LO:DY:rj	!	!	!	!	!	!	!	!	!	!
8GG/	.	pp	8B/L	pp	8g/L	.	.	.	.	.	2.ryy	2.ryy	2.ryy	2.ryy
8r	.	.	16B/L	.	16d/L	.	.	.	.	.	.	.	.	.
.	.	.	16c/JJ	.	16e/JJ	.	.	.	.	.	.	.	.	.
8GG/	.	.	16B/LL	.	16d/LL	.	.	.	.	.	.	.	.	.
.	.	.	16c/	.	16e/	.	.	.	.	.	.	.	.	.
8r	.	.	16B/	.	16d/	.	.	.	.	.	.	.	.	.
.	.	.	16c/JJ	.	16e/JJ	.	.	.	.	.	.	.	.	.
8GG/	.	.	4B/	.	8d/	.	.	.	.	.	.	.	.	.
8r	.	.	.	.	8r	.	.	.	.	.	.	.	.	.
==	==	==	==	==	==	==	==	==	==	==	==	==	==	==
*-	*-	*-	*-	*-	*-	*-	*-	*-	*-	*-	*-	*-	*-	*-
!!!system-decoration: [(s1,s2)][(s3,s4,s5,s6)][(s7,s8)]s9
!!!RDF**dynam: p = p.
!!!RDF**dynam: pp = pp.
!!!RDF**dynam: f = for
!!!ENC: Berenika Jozajtis
!!!END: 2021-11-15
!!!ENC: Leszek Kubiak
!!!END: 2021-11-29
!!!YEC: Copyright 2022 Narodowy Instytut Fryderyka Chopina (https://polishscores.org)
!!!YEM: Licence CC BY 4.0 (https://creativecommons.org/licenses/by/4.0)
